;FLAVOR:Marlin
;TIME:3389
;Filament used: 4.35405m
;Layer height: 0.2
;MINX:-23.85
;MINY:-27.85
;MINZ:0.1
;MAXX:23.85
;MAXY:34.85
;MAXZ:12.3
;Generated with Cura_SteamEngine 5.3.0
M82 ;absolute extrusion mode
G21 ; millimeter units
G90 ; absolute coordinates
M82 ; E absolute
M140 S60
M104 S220
M190 S60
M109 S220
G28 ; home axis
M420 S1 ; enable mesh leveling
; Lower nozzle and move to start position
G1 Z150
G1 X-130 Y0 Z0.4 F3000
; Extrude about 40 mm by printing a 90 degree arc
G3 X0 Y-130 I130 Z0.3 E40 F2700
; Retract and move nozzle up
G92 E0
G1 E-1.5 F1800
G0 Z0.5
G1 E0 F300

G92 E0
G92 E0
G1 F2400 E-6.5
;LAYER_COUNT:61
;LAYER:0
M107
G1 F3000 Z0.7
G0 X23.45 Y-23.018 Z0.7
;TYPE:SKIRT
G1 F3000 Z0.1
G1 F2400 E0
G1 F1500 X23.449 Y30.039 E0.88234
G1 X23.44 Y30.725 E0.89375
G1 X23.327 Y31.583 E0.90814
G1 X23.109 Y32.229 E0.91948
G1 X22.874 Y32.677 E0.92789
G1 X22.389 Y33.293 E0.94093
G1 X21.894 Y33.726 E0.95187
G1 X21.466 Y33.995 E0.96028
G1 X20.969 Y34.211 E0.96929
G1 X20.485 Y34.36 E0.97771
G1 X19.839 Y34.437 E0.98853
G1 X19.017 Y34.45 E1.0022
G1 X-19.109 Y34.45 E1.63624
G1 X-19.907 Y34.439 E1.64951
G1 X-20.41 Y34.392 E1.65791
G1 X-20.9 Y34.266 E1.66633
G1 X-21.364 Y34.065 E1.67473
G1 X-22.014 Y33.638 E1.68767
G1 X-22.542 Y33.144 E1.69969
G1 X-22.852 Y32.744 E1.70811
G1 X-23.095 Y32.301 E1.71651
G1 X-23.345 Y31.549 E1.72969
G1 X-23.44 Y30.748 E1.7431
G1 X-23.45 Y29.972 E1.75601
G1 X-23.449 Y-23.129 E2.63908
G1 X-23.438 Y-23.819 E2.65056
G1 X-23.39 Y-24.322 E2.65896
G1 X-23.263 Y-24.812 E2.66738
G1 X-23.049 Y-25.326 E2.67664
G1 X-22.81 Y-25.771 E2.68504
G1 X-22.504 Y-26.174 E2.69345
G1 X-22.139 Y-26.523 E2.70185
G1 X-21.456 Y-26.972 E2.71545
G1 X-21.004 Y-27.198 E2.72385
G1 X-20.521 Y-27.35 E2.73227
G1 X-19.864 Y-27.431 E2.74328
G1 X-18.855 Y-27.45 E2.76006
G1 X19.111 Y-27.449 E3.39144
G1 X19.906 Y-27.438 E3.40466
G1 X20.41 Y-27.391 E3.41308
G1 X20.899 Y-27.265 E3.42148
G1 X21.363 Y-27.064 E3.42989
G1 X21.97 Y-26.669 E3.44193
G1 X22.467 Y-26.209 E3.45319
G1 X22.779 Y-25.812 E3.46159
G1 X23.169 Y-25.059 E3.47569
G1 X23.37 Y-24.381 E3.48745
G1 X23.44 Y-23.762 E3.49781
G1 X23.45 Y-23.018 E3.51018
G0 F3000 X23.85 Y-23.018
G1 F1500 X23.849 Y30.044 E4.39261
G1 X23.837 Y30.777 E4.4048
G1 X23.719 Y31.672 E4.41981
G1 X23.488 Y32.357 E4.43184
G1 X23.213 Y32.892 E4.44184
G1 X22.679 Y33.571 E4.4562
G1 X22.107 Y34.065 E4.46877
G1 X21.679 Y34.334 E4.47718
G1 X21.128 Y34.578 E4.4872
G1 X20.569 Y34.753 E4.49694
G1 X19.845 Y34.837 E4.50906
G1 X19.023 Y34.85 E4.52273
G1 X-19.115 Y34.85 E5.15697
G1 X-19.913 Y34.839 E5.17024
G1 X-20.51 Y34.779 E5.18022
G1 X-21.059 Y34.633 E5.18967
G1 X-21.555 Y34.418 E5.19866
G1 X-22.262 Y33.953 E5.21273
G1 X-22.858 Y33.389 E5.22638
G1 X-23.203 Y32.936 E5.23585
G1 X-23.464 Y32.46 E5.24488
G1 X-23.737 Y31.639 E5.25926
G1 X-23.84 Y30.753 E5.2741
G1 X-23.85 Y29.972 E5.28709
G1 X-23.849 Y-23.135 E6.17026
G1 X-23.838 Y-23.825 E6.18174
G1 X-23.777 Y-24.422 E6.19172
G1 X-23.632 Y-24.966 E6.20108
G1 X-23.418 Y-25.48 E6.21034
G1 X-23.129 Y-26.013 E6.22042
G1 X-22.823 Y-26.416 E6.22884
G1 X-22.388 Y-26.838 E6.23891
G1 X-21.635 Y-27.33 E6.25387
G1 X-21.124 Y-27.58 E6.26333
G1 X-20.608 Y-27.742 E6.27233
G1 X-19.872 Y-27.831 E6.28466
G1 X-18.855 Y-27.85 E6.30157
G1 X19.117 Y-27.849 E6.93305
G1 X19.912 Y-27.838 E6.94627
G1 X20.51 Y-27.778 E6.95627
G1 X21.058 Y-27.632 E6.9657
G1 X21.553 Y-27.418 E6.97467
G1 X22.242 Y-26.963 E6.9884
G1 X22.739 Y-26.503 E6.99966
G1 X23.117 Y-26.029 E7.00974
G1 X23.543 Y-25.206 E7.02515
G1 X23.754 Y-24.495 E7.03749
G1 X23.84 Y-23.767 E7.04968
G1 X23.85 Y-23.018 E7.06213
G1 F2400 E0.56213
;MESH:????????????.stl
G0 F3000 X18.249 Y-22.248
G0 X-18.276 Y-22.277
G0 X-18.449 Y29.449
;TYPE:WALL-INNER
G1 F2400 E7.06213
G1 F1500 X18.449 Y29.449 E7.67575
G1 X18.449 Y-22.448 E8.5388
G1 X-18.448 Y-22.449 E9.1524
G1 X-18.449 Y29.449 E10.01547
G0 F3000 X-18.849 Y29.849
G1 F1500 X18.849 Y29.849 E10.64239
G1 X18.849 Y-22.848 E11.51874
G1 X-18.848 Y-22.849 E12.14565
G1 X-18.849 Y29.849 E13.02202
G0 F3000 X-19.249 Y30.249
G1 F1500 X19.249 Y30.249 E13.66224
G1 X19.249 Y-23.248 E14.5519
G1 X-19.248 Y-23.249 E15.19211
G1 X-19.249 Y30.249 E16.08178
G0 F3000 X-19.649 Y30.649
G1 F1500 X19.645 Y30.649 E16.73524
G1 X19.649 Y-23.648 E17.63821
G1 X-19.645 Y-23.649 E18.29167
G1 X-19.649 Y30.649 E19.19465
G0 F3000 X-19.866 Y31.005
;TYPE:WALL-OUTER
G1 F1500 X-19.74 Y31.05 E19.19665
G1 X19.744 Y31.049 E19.78761
G1 X19.872 Y30.999 E19.78967
G1 X20 Y30.868 E19.79241
G1 X20.049 Y30.69 E19.79517
G1 X20.049 Y-23.794 E20.61064
G1 X19.872 Y-24.002 E20.61473
G1 X19.735 Y-24.049 E20.61689
G1 X-19.745 Y-24.049 E21.20779
G1 X-19.96 Y-23.928 E21.21149
G1 X-20.048 Y-23.726 E21.21478
G1 X-20.05 Y30.697 E22.02934
G1 X-20.023 Y30.826 E22.03131
G1 X-19.866 Y31.005 E22.03487
G0 F3000 X-19.74 Y31.05
G0 X-19.673 Y31.05
G0 X-19.38 Y30.38
G0 X-18.348 Y29.088
G0 X-18.089 Y29.089
;TYPE:SKIN
G1 F1500 X-18.088 Y-22.089 E22.88597
G1 X18.089 Y-22.088 E23.48759
G1 X18.089 Y29.089 E24.33867
G1 X-18.089 Y29.089 E24.94031
G0 F3000 X-17.889 Y28.497
G1 F1500 X-17.497 Y28.888 E24.94952
G0 F3000 X-16.931 Y28.888
G1 F1500 X-17.889 Y27.931 E24.97204
G0 F3000 X-17.889 Y27.365
G1 F1500 X-16.365 Y28.888 E25.00787
G0 F3000 X-15.8 Y28.888
G1 F1500 X-17.889 Y26.8 E25.05699
G0 F3000 X-17.889 Y26.234
G1 F1500 X-15.234 Y28.888 E25.11942
G0 F3000 X-14.668 Y28.888
G1 F1500 X-17.889 Y25.668 E25.19516
G0 F3000 X-17.889 Y25.102
G1 F1500 X-14.103 Y28.888 E25.2842
G0 F3000 X-13.537 Y28.888
G1 F1500 X-17.889 Y24.537 E25.38654
G0 F3000 X-17.889 Y23.971
G1 F1500 X-12.971 Y28.888 E25.50219
G0 F3000 X-12.406 Y28.888
G1 F1500 X-17.889 Y23.405 E25.63114
G0 F3000 X-17.889 Y22.84
G1 F1500 X-11.84 Y28.888 E25.77339
G0 F3000 X-11.274 Y28.888
G1 F1500 X-17.889 Y22.274 E25.92896
G0 F3000 X-17.889 Y21.708
G1 F1500 X-10.709 Y28.888 E26.09782
G0 F3000 X-10.143 Y28.888
G1 F1500 X-17.889 Y21.143 E26.27998
G0 F3000 X-17.889 Y20.577
G1 F1500 X-9.577 Y28.888 E26.47546
G0 F3000 X-9.012 Y28.888
G1 F1500 X-17.889 Y20.011 E26.68423
G0 F3000 X-17.889 Y19.446
G1 F1500 X-8.446 Y28.888 E26.9063
G0 F3000 X-7.88 Y28.888
G1 F1500 X-17.889 Y18.88 E27.14169
G0 F3000 X-17.889 Y18.314
G1 F1500 X-7.315 Y28.888 E27.39037
G0 F3000 X-6.749 Y28.888
G1 F1500 X-17.889 Y17.749 E27.65235
G0 F3000 X-17.889 Y17.183
G1 F1500 X-6.183 Y28.888 E27.92765
G0 F3000 X-5.617 Y28.888
G1 F1500 X-17.889 Y16.617 E28.21626
G0 F3000 X-17.889 Y16.052
G1 F1500 X-5.052 Y28.888 E28.51815
G0 F3000 X-4.486 Y28.888
G1 F1500 X-17.889 Y15.486 E28.83336
G0 F3000 X-17.889 Y14.92
G1 F1500 X-3.92 Y28.888 E29.16188
G0 F3000 X-3.355 Y28.888
G1 F1500 X-17.889 Y14.354 E29.50369
G0 F3000 X-17.889 Y13.789
G1 F1500 X-2.789 Y28.888 E29.85881
G0 F3000 X-2.223 Y28.888
G1 F1500 X-17.889 Y13.223 E30.22724
G0 F3000 X-17.889 Y12.657
G1 F1500 X-1.658 Y28.888 E30.60897
G0 F3000 X-1.092 Y28.888
G1 F1500 X-17.889 Y12.092 E31.00399
G0 F3000 X-17.889 Y11.526
G1 F1500 X-.526 Y28.888 E31.41233
G0 F3000 X0.038 Y28.888
G1 F1500 X-17.889 Y10.96 E31.83396
G0 F3000 X-17.889 Y10.395
G1 F1500 X0.604 Y28.888 E32.26889
G0 F3000 X1.17 Y28.888
G1 F1500 X-17.889 Y9.829 E32.71713
G0 F3000 X-17.889 Y9.263
G1 F1500 X1.735 Y28.888 E33.17867
G0 F3000 X2.301 Y28.888
G1 F1500 X-17.889 Y8.698 E33.6535
G0 F3000 X-17.889 Y8.132
G1 F1500 X2.867 Y28.888 E34.14165
G0 F3000 X3.433 Y28.888
G1 F1500 X-17.889 Y7.566 E34.64311
G0 F3000 X-17.889 Y7.001
G1 F1500 X3.998 Y28.888 E35.15786
G0 F3000 X4.564 Y28.888
G1 F1500 X-17.889 Y6.435 E35.68592
G0 F3000 X-17.889 Y5.869
G1 F1500 X5.13 Y28.888 E36.22729
G0 F3000 X5.695 Y28.888
G1 F1500 X-17.889 Y5.304 E36.78195
G0 F3000 X-17.889 Y4.738
G1 F1500 X6.261 Y28.888 E37.34992
G0 F3000 X6.827 Y28.888
G1 F1500 X-17.889 Y4.172 E37.93121
G0 F3000 X-17.889 Y3.606
G1 F1500 X7.392 Y28.888 E38.52579
G0 F3000 X7.958 Y28.888
G1 F1500 X-17.888 Y3.041 E39.13366
G0 F3000 X-17.888 Y2.476
G1 F1500 X8.524 Y28.888 E39.75483
G0 F3000 X9.089 Y28.888
G1 F1500 X-17.888 Y1.91 E40.3893
G0 F3000 X-17.888 Y1.344
G1 F1500 X9.655 Y28.888 E41.03708
G0 F3000 X10.221 Y28.888
G1 F1500 X-17.888 Y0.779 E41.69816
G0 F3000 X-17.888 Y0.213
G1 F1500 X10.786 Y28.888 E42.37254
G0 F3000 X11.352 Y28.888
G1 F1500 X-17.888 Y-.352 E43.06022
G0 F3000 X-17.888 Y-.917
G1 F1500 X11.918 Y28.888 E43.7612
G0 F3000 X12.483 Y28.888
G1 F1500 X-17.888 Y-1.483 E44.47548
G0 F3000 X-17.888 Y-2.049
G1 F1500 X13.049 Y28.888 E45.20307
G0 F3000 X13.615 Y28.888
G1 F1500 X-17.888 Y-2.614 E45.94396
G0 F3000 X-17.888 Y-3.18
G1 F1500 X14.181 Y28.888 E46.69816
G0 F3000 X14.746 Y28.888
G1 F1500 X-17.888 Y-3.746 E47.46566
G0 F3000 X-17.888 Y-4.311
G1 F1500 X15.312 Y28.888 E48.24646
G0 F3000 X15.878 Y28.888
G1 F1500 X-17.888 Y-4.877 E49.04058
G0 F3000 X-17.888 Y-5.443
G1 F1500 X16.443 Y28.888 E49.84799
G0 F3000 X17.009 Y28.888
G1 F1500 X-17.888 Y-6.008 E50.6687
G0 F3000 X-17.888 Y-6.574
G1 F1500 X17.575 Y28.888 E51.50273
G0 F3000 X17.889 Y28.637
G1 F1500 X-17.888 Y-7.14 E52.34415
G0 F3000 X-17.888 Y-7.706
G1 F1500 X17.889 Y28.071 E53.18557
G0 F3000 X17.889 Y27.505
G1 F1500 X-17.888 Y-8.271 E54.02697
G0 F3000 X-17.888 Y-8.837
G1 F1500 X17.889 Y26.94 E54.86839
G0 F3000 X17.889 Y26.374
G1 F1500 X-17.888 Y-9.403 E55.70982
G0 F3000 X-17.888 Y-9.968
G1 F1500 X17.889 Y25.808 E56.55122
G0 F3000 X17.889 Y25.243
G1 F1500 X-17.888 Y-10.534 E57.39264
G0 F3000 X-17.888 Y-11.1
G1 F1500 X17.889 Y24.677 E58.23406
G0 F3000 X17.889 Y24.111
G1 F1500 X-17.888 Y-11.665 E59.07547
G0 F3000 X-17.888 Y-12.231
G1 F1500 X17.889 Y23.545 E59.91688
G0 F3000 X17.889 Y22.98
G1 F1500 X-17.888 Y-12.797 E60.7583
G0 F3000 X-17.888 Y-13.362
G1 F1500 X17.889 Y22.414 E61.59971
G0 F3000 X17.889 Y21.848
G1 F1500 X-17.888 Y-13.928 E62.44112
G0 F3000 X-17.888 Y-14.494
G1 F1500 X17.889 Y21.283 E63.28254
G0 F3000 X17.889 Y20.717
G1 F1500 X-17.888 Y-15.059 E64.12395
G0 F3000 X-17.888 Y-15.625
G1 F1500 X17.889 Y20.151 E64.96535
G0 F3000 X17.889 Y19.586
G1 F1500 X-17.888 Y-16.191 E65.80678
G0 F3000 X-17.888 Y-16.757
G1 F1500 X17.889 Y19.02 E66.6482
G0 F3000 X17.889 Y18.454
G1 F1500 X-17.888 Y-17.322 E67.4896
G0 F3000 X-17.888 Y-17.888
G1 F1500 X17.889 Y17.889 E68.33102
G0 F3000 X17.889 Y17.323
G1 F1500 X-17.888 Y-18.454 E69.17244
G0 F3000 X-17.888 Y-19.019
G1 F1500 X17.889 Y16.757 E70.01385
G0 F3000 X17.889 Y16.192
G1 F1500 X-17.888 Y-19.585 E70.85527
G0 F3000 X-17.888 Y-20.151
G1 F1500 X17.889 Y15.626 E71.69669
G0 F3000 X17.889 Y15.06
G1 F1500 X-17.888 Y-20.716 E72.5381
G0 F3000 X-17.888 Y-21.282
G1 F1500 X17.889 Y14.494 E73.37951
G0 F3000 X17.889 Y13.929
G1 F1500 X-17.888 Y-21.848 E74.22093
G0 F3000 X-17.362 Y-21.887
G1 F1500 X17.889 Y13.363 E75.04997
G0 F3000 X17.889 Y12.797
G1 F1500 X-16.796 Y-21.887 E75.86569
G0 F3000 X-16.23 Y-21.887
G1 F1500 X17.889 Y12.232 E76.66812
G0 F3000 X17.889 Y11.666
G1 F1500 X-15.665 Y-21.887 E77.45725
G0 F3000 X-15.099 Y-21.887
G1 F1500 X17.889 Y11.1 E78.23306
G0 F3000 X17.889 Y10.535
G1 F1500 X-14.533 Y-21.887 E78.99558
G0 F3000 X-13.968 Y-21.887
G1 F1500 X17.889 Y9.969 E79.74479
G0 F3000 X17.889 Y9.403
G1 F1500 X-13.402 Y-21.887 E80.4807
G0 F3000 X-12.836 Y-21.887
G1 F1500 X17.889 Y8.838 E81.2033
G0 F3000 X17.889 Y8.272
G1 F1500 X-12.271 Y-21.887 E81.91261
G0 F3000 X-11.705 Y-21.887
G1 F1500 X17.889 Y7.706 E82.6086
G0 F3000 X17.889 Y7.141
G1 F1500 X-11.139 Y-21.887 E83.2913
G0 F3000 X-10.574 Y-21.887
G1 F1500 X17.889 Y6.575 E83.96069
G0 F3000 X17.889 Y6.009
G1 F1500 X-10.008 Y-21.887 E84.61677
G0 F3000 X-9.442 Y-21.887
G1 F1500 X17.889 Y5.444 E85.25956
G0 F3000 X17.889 Y4.878
G1 F1500 X-8.877 Y-21.887 E85.88904
G0 F3000 X-8.311 Y-21.887
G1 F1500 X17.889 Y4.312 E86.50521
G0 F3000 X17.889 Y3.746
G1 F1500 X-7.745 Y-21.887 E87.10807
G0 F3000 X-7.179 Y-21.887
G1 F1500 X17.889 Y3.181 E87.69763
G0 F3000 X17.889 Y2.615
G1 F1500 X-6.614 Y-21.887 E88.2739
G0 F3000 X-6.048 Y-21.887
G1 F1500 X17.889 Y2.049 E88.83685
G0 F3000 X17.889 Y1.484
G1 F1500 X-5.482 Y-21.887 E89.3865
G0 F3000 X-4.917 Y-21.887
G1 F1500 X17.889 Y0.918 E89.92285
G0 F3000 X17.889 Y0.352
G1 F1500 X-4.351 Y-21.887 E90.44589
G0 F3000 X-3.785 Y-21.887
G1 F1500 X17.889 Y-.212 E90.95564
G0 F3000 X17.889 Y-.778
G1 F1500 X-3.22 Y-21.887 E91.45209
G0 F3000 X-2.654 Y-21.887
G1 F1500 X17.889 Y-1.344 E91.93523
G0 F3000 X17.889 Y-1.909
G1 F1500 X-2.088 Y-21.887 E92.40507
G0 F3000 X-1.523 Y-21.887
G1 F1500 X17.889 Y-2.475 E92.86161
G0 F3000 X17.889 Y-3.041
G1 F1500 X-.957 Y-21.887 E93.30484
G0 F3000 X-.391 Y-21.887
G1 F1500 X17.889 Y-3.606 E93.73477
G0 F3000 X17.889 Y-4.172
G1 F1500 X0.174 Y-21.887 E94.1514
G0 F3000 X0.74 Y-21.887
G1 F1500 X17.889 Y-4.738 E94.55471
G0 F3000 X17.889 Y-5.304
G1 F1500 X1.306 Y-21.887 E94.94472
G0 F3000 X1.871 Y-21.887
G1 F1500 X17.889 Y-5.869 E95.32144
G0 F3000 X17.889 Y-6.435
G1 F1500 X2.437 Y-21.887 E95.68485
G0 F3000 X3.003 Y-21.887
G1 F1500 X17.889 Y-7.001 E96.03494
G0 F3000 X17.889 Y-7.566
G1 F1500 X3.568 Y-21.887 E96.37175
G0 F3000 X4.134 Y-21.887
G1 F1500 X17.889 Y-8.132 E96.69525
G0 F3000 X17.889 Y-8.698
G1 F1500 X4.7 Y-21.887 E97.00543
G0 F3000 X5.265 Y-21.887
G1 F1500 X17.889 Y-9.263 E97.30233
G0 F3000 X17.889 Y-9.829
G1 F1500 X5.831 Y-21.887 E97.58592
G0 F3000 X6.397 Y-21.887
G1 F1500 X17.889 Y-10.395 E97.85619
G0 F3000 X17.889 Y-10.96
G1 F1500 X6.962 Y-21.887 E98.11318
G0 F3000 X7.528 Y-21.887
G1 F1500 X17.889 Y-11.526 E98.35685
G0 F3000 X17.889 Y-12.092
G1 F1500 X8.094 Y-21.887 E98.58721
G0 F3000 X8.659 Y-21.887
G1 F1500 X17.889 Y-12.657 E98.80429
G0 F3000 X17.889 Y-13.223
G1 F1500 X9.225 Y-21.887 E99.00805
G0 F3000 X9.791 Y-21.887
G1 F1500 X17.889 Y-13.789 E99.19851
G0 F3000 X17.889 Y-14.354
G1 F1500 X10.356 Y-21.887 E99.37567
G0 F3000 X10.922 Y-21.887
G1 F1500 X17.889 Y-14.92 E99.53952
G0 F3000 X17.889 Y-15.486
G1 F1500 X11.488 Y-21.887 E99.69007
G0 F3000 X12.054 Y-21.887
G1 F1500 X17.889 Y-16.052 E99.8273
G0 F3000 X17.889 Y-16.617
G1 F1500 X12.619 Y-21.887 E99.95124
G0 F3000 X13.185 Y-21.887
G1 F1500 X17.889 Y-17.183 E100.06187
G0 F3000 X17.889 Y-17.749
G1 F1500 X13.751 Y-21.887 E100.15919
G0 F3000 X14.316 Y-21.887
G1 F1500 X17.889 Y-18.314 E100.24322
G0 F3000 X17.889 Y-18.88
G1 F1500 X14.882 Y-21.887 E100.31394
G0 F3000 X15.448 Y-21.887
G1 F1500 X17.889 Y-19.446 E100.37135
G0 F3000 X17.889 Y-20.011
G1 F1500 X16.013 Y-21.887 E100.41547
G0 F3000 X16.579 Y-21.887
G1 F1500 X17.889 Y-20.577 E100.44628
G0 F3000 X17.889 Y-21.143
G1 F1500 X17.145 Y-21.887 E100.46378
G0 F3000 X17.71 Y-21.887
G1 F1500 X17.889 Y-21.708 E100.46799
M104 S220
G0 F3000 X18.649 Y-21.708
G1 F2400 E93.96799
;MESH:NOMESH
G0 F3000 X18.649 Y-21.708 Z0.3
G0 X18.277 Y29.277
G0 X-18.6 Y29.6
;TIME_ELAPSED:252.094760
;LAYER:1
M106 S255
;TYPE:WALL-INNER
;MESH:????????????.stl
G1 F2400 E100.46799
G1 F2200 X18.6 Y29.6 E101.70526
G1 X18.6 Y-22.6 E103.44144
G1 X-18.6 Y-22.6 E104.67872
G1 X-18.6 Y29.6 E106.4149
G0 F4000 X-19 Y30
G1 F2200 X19 Y30 E107.67878
G1 X19 Y-23 E109.44157
G1 X-19 Y-23 E110.70546
G1 X-19 Y30 E112.46824
G0 F4000 X-19.4 Y30.4
G1 F2200 X19.4 Y30.4 E113.75874
G1 X19.4 Y-23.4 E115.54813
G1 X-19.4 Y-23.4 E116.83862
G1 X-19.4 Y30.4 E118.62802
G0 F4000 X-19.8 Y30.736
G1 F2200 X-19.657 Y30.8 E118.63323
G1 X19.734 Y30.8 E119.94338
G1 X19.8 Y30.657 E119.94862
G1 X19.8 Y-23.693 E121.75631
G1 X19.689 Y-23.799 E121.76141
G1 X-19.695 Y-23.8 E123.07133
G1 X-19.799 Y-23.69 E123.07636
G1 X-19.8 Y30.736 E124.88658
G0 F4000 X-20.119 Y30.969
;TYPE:WALL-OUTER
G1 F1800 X-20.011 Y31.086 E124.89135
G1 X-19.737 Y31.2 E124.90023
G1 X19.689 Y31.2 E126.08041
G1 X19.864 Y31.17 E126.08573
G1 X20.086 Y31.011 E126.0939
G1 X20.2 Y30.737 E126.10279
G1 X20.2 Y-23.753 E127.7339
G1 X20.067 Y-24.031 E127.74312
G1 X19.754 Y-24.199 E127.75375
G1 X-19.755 Y-24.2 E128.93642
G1 X-20.03 Y-24.068 E128.94555
G1 X-20.199 Y-23.809 E128.95481
G1 X-20.2 Y30.691 E130.58622
G1 X-20.119 Y30.969 E130.59489
G0 F4000 X-20.011 Y31.086
G0 X-19.974 Y31.101
G0 X-19.53 Y30.53
G0 X-18.5 Y29.24
G0 X-18.24 Y29.24
;TYPE:SKIN
G1 F2200 X-18.24 Y-22.24 E132.30712
G1 X18.24 Y-22.24 E133.52045
G1 X18.24 Y29.24 E135.23268
G1 X-18.24 Y29.24 E136.44601
G1 F2400 E129.94601
G0 F4000 X-18.5 Y29.24
G0 X17.912 Y29.5
G0 X17.912 Y29.039
G1 F2400 E136.44601
G1 F2200 X18.039 Y28.912 E136.45198
G0 F4000 X18.039 Y28.346
