;FLAVOR:Marlin
;TIME:3933
;Filament used: 5.83134m
;Layer height: 0.2
;MINX:-24.05
;MINY:-38.027
;MINZ:0.1
;MAXX:24.05
;MAXY:25.073
;MAXZ:15.5
;Generated with Cura_SteamEngine 5.3.0
M82 ;absolute extrusion mode
G21 ; millimeter units
G90 ; absolute coordinates
M82 ; E absolute
M140 S60
M104 S220
M190 S60
M109 S220
G28 ; home axis
M420 S1 ; enable mesh leveling
; Lower nozzle and move to start position
G1 Z150
G1 X-130 Y0 Z0.4 F3000
; Extrude about 40 mm by printing a 90 degree arc
G3 X0 Y-130 I130 Z0.3 E40 F2700
; Retract and move nozzle up
G92 E0
G1 E-1.5 F1800
G0 Z0.5
G1 E0 F300

G92 E0
G92 E0
G1 F2400 E-6.5
;LAYER_COUNT:76
;LAYER:0
M107
G1 F3000 Z0.7
G0 X24.049 Y21.054 Z0.7
;TYPE:SKIRT
G1 F3000 Z0.1
G1 F2400 E0
G1 F1500 X23.784 Y22.324 E0.02158
G1 X23.088 Y23.434 E0.04336
G1 X22.335 Y24.168 E0.06085
G1 X21.274 Y24.8 E0.08139
G1 X20.053 Y25.07 E0.10218
G1 X-20.099 Y25.073 E0.76991
G1 X-21.244 Y24.817 E0.78943
G1 X-22.4 Y24.148 E0.81164
G1 X-23.014 Y23.534 E0.82608
G1 X-23.477 Y22.872 E0.83951
G1 X-23.983 Y21.58 E0.86259
G1 X-24.05 Y21.183 E0.86928
G1 X-24.049 Y-34.279 E1.79162
G1 X-23.568 Y-35.631 E1.81548
G1 X-23.242 Y-36.231 E1.82684
G1 X-22.39 Y-37.176 E1.848
G1 X-21.387 Y-37.67 E1.86659
G1 X-20.28 Y-38.027 E1.88594
G1 X20.025 Y-38.026 E2.55621
G1 X21.331 Y-37.753 E2.5784
G1 X22.437 Y-37.042 E2.60026
G1 X23.281 Y-36.162 E2.62054
G1 X23.806 Y-35.222 E2.63845
G1 X24.05 Y-34.094 E2.65764
G1 X24.049 Y21.054 E3.57475
G0 F3000 X23.649 Y21.01
G1 F1500 X23.406 Y22.174 E3.59453
G1 X22.774 Y23.182 E3.61431
G1 X22.093 Y23.846 E3.63013
G1 X21.124 Y24.423 E3.64889
G1 X20.008 Y24.67 E3.6679
G1 X-20.057 Y24.673 E4.33418
G1 X-21.097 Y24.44 E4.3519
G1 X-22.153 Y23.829 E4.37219
G1 X-22.707 Y23.275 E4.38522
G1 X-23.123 Y22.68 E4.3973
G1 X-23.611 Y21.434 E4.41955
G1 X-23.65 Y21.183 E4.42377
G1 X-23.649 Y-34.211 E5.34498
G1 X-23.216 Y-35.44 E5.36665
G1 X-22.912 Y-36 E5.37725
G1 X-22.144 Y-36.852 E5.39632
G1 X-21.264 Y-37.289 E5.41266
G1 X-20.216 Y-37.627 E5.43097
G1 X19.981 Y-37.626 E6.09945
G1 X21.177 Y-37.376 E6.11977
G1 X22.181 Y-36.731 E6.13962
G1 X22.958 Y-35.92 E6.15829
G1 X23.428 Y-35.08 E6.1743
G1 X23.65 Y-34.052 E6.19179
G1 X23.649 Y21.01 E7.10748
G0 F3000 X23.249 Y20.966
G1 F1500 X23.028 Y22.024 E7.12545
G1 X22.46 Y22.93 E7.14323
G1 X21.849 Y23.526 E7.15743
G1 X20.976 Y24.045 E7.17432
G1 X19.962 Y24.27 E7.19159
G1 X-20.014 Y24.273 E7.85639
G1 X-20.95 Y24.063 E7.87235
G1 X-21.906 Y23.51 E7.89071
G1 X-22.4 Y23.016 E7.90233
G1 X-22.769 Y22.488 E7.91304
G1 X-23.223 Y21.329 E7.93374
G1 X-23.25 Y21.183 E7.93621
G1 X-23.249 Y-34.142 E8.85627
G1 X-22.864 Y-35.249 E8.87576
G1 X-22.582 Y-35.769 E8.8856
G1 X-21.897 Y-36.528 E8.9026
G1 X-21.141 Y-36.908 E8.91667
G1 X-20.152 Y-37.227 E8.93396
G1 X19.937 Y-37.226 E9.60064
G1 X21.023 Y-36.999 E9.61909
G1 X21.925 Y-36.42 E9.63691
G1 X22.635 Y-35.678 E9.65399
G1 X23.049 Y-34.938 E9.66809
G1 X23.25 Y-34.009 E9.6839
G1 X23.249 Y20.966 E10.59814
G0 F3000 X22.849 Y20.922
G1 F1500 X22.65 Y21.874 E10.61431
G1 X22.146 Y22.678 E10.63009
G1 X21.607 Y23.204 E10.64262
G1 X20.827 Y23.668 E10.65771
G1 X19.916 Y23.87 E10.67323
G1 X-19.972 Y23.873 E11.33657
G1 X-20.803 Y23.687 E11.35073
G1 X-21.658 Y23.192 E11.36716
G1 X-22.093 Y22.757 E11.37739
G1 X-22.413 Y22.3 E11.38667
G1 X-22.85 Y21.183 E11.40662
G1 X-22.849 Y-34.075 E12.32556
G1 X-22.512 Y-35.058 E12.34284
G1 X-22.252 Y-35.538 E12.35192
G1 X-21.65 Y-36.205 E12.36686
G1 X-21.018 Y-36.527 E12.37866
G1 X-20.088 Y-36.827 E12.39491
G1 X19.893 Y-36.826 E13.05979
G1 X20.869 Y-36.622 E13.07638
G1 X21.669 Y-36.109 E13.09218
G1 X22.312 Y-35.437 E13.10765
G1 X22.67 Y-34.796 E13.11986
G1 X22.85 Y-33.966 E13.13398
G1 X22.849 Y20.922 E14.04677
G0 F3000 X22.449 Y20.878
G1 F1500 X22.273 Y21.722 E14.06111
G1 X21.83 Y22.428 E14.07497
G1 X21.365 Y22.882 E14.08578
G1 X20.678 Y23.291 E14.09907
G1 X19.87 Y23.47 E14.11284
G1 X-19.929 Y23.473 E14.7747
G1 X-20.656 Y23.31 E14.78709
G1 X-21.411 Y22.873 E14.80159
G1 X-21.81 Y22.474 E14.81098
G1 X-22.041 Y22.154 E14.81754
G1 X-22.45 Y21.109 E14.8362
G1 X-22.449 Y-34.009 E15.75282
G1 X-22.134 Y-34.928 E15.76898
G1 X-21.955 Y-35.27 E15.7754
G1 X-21.403 Y-35.882 E15.7891
G1 X-20.837 Y-36.17 E15.79966
G1 X-20.026 Y-36.427 E15.81381
G1 X19.849 Y-36.426 E16.47693
G1 X20.715 Y-36.245 E16.49165
G1 X21.413 Y-35.798 E16.50543
G1 X21.989 Y-35.196 E16.51929
G1 X22.291 Y-34.654 E16.52961
G1 X22.45 Y-33.922 E16.54206
G1 X22.449 Y20.878 E17.45339
G0 F3000 X22.049 Y20.834
G1 F1500 X21.895 Y21.572 E17.46593
G1 X21.518 Y22.174 E17.47774
G1 X21.117 Y22.564 E17.48704
G1 X20.531 Y22.914 E17.49839
G1 X19.825 Y23.07 E17.51042
G1 X-19.886 Y23.073 E18.17081
G1 X-20.509 Y22.933 E18.18143
G1 X-21.164 Y22.554 E18.19402
G1 X-21.527 Y22.191 E18.20255
G1 X-21.688 Y21.96 E18.20724
G1 X-22.05 Y21.035 E18.22376
G1 X-22.049 Y-33.943 E19.13804
G1 X-21.756 Y-34.798 E19.15307
G1 X-21.624 Y-35.04 E19.15766
G1 X-21.156 Y-35.559 E19.16928
G1 X-20.656 Y-35.813 E19.17861
G1 X-19.965 Y-36.027 E19.19064
G1 X19.81 Y-36.026 E19.8521
G1 X20.559 Y-35.869 E19.86482
G1 X21.159 Y-35.485 E19.87667
G1 X21.664 Y-34.957 E19.88882
G1 X21.912 Y-34.512 E19.89729
G1 X22.05 Y-33.878 E19.90808
G1 X22.049 Y20.834 E20.81795
G0 F3000 X21.649 Y20.79
G1 F1500 X21.517 Y21.422 E20.82868
G1 X21.206 Y21.919 E20.83843
G1 X20.869 Y22.247 E20.84626
G1 X20.384 Y22.537 E20.85565
G1 X19.78 Y22.67 E20.86594
G1 X-19.842 Y22.673 E21.52485
G1 X-20.362 Y22.556 E21.53372
G1 X-20.917 Y22.235 E21.54438
G1 X-21.244 Y21.908 E21.55207
G1 X-21.333 Y21.771 E21.55479
G1 X-21.65 Y20.961 E21.56925
G1 X-21.649 Y-33.877 E22.48121
G1 X-21.378 Y-34.668 E22.49512
G1 X-21.297 Y-34.806 E22.49778
G1 X-20.908 Y-35.236 E22.50742
G1 X-20.538 Y-35.431 E22.51438
G1 X-19.905 Y-35.627 E22.5254
G1 X19.771 Y-35.626 E23.18521
G1 X20.405 Y-35.493 E23.19598
G1 X20.904 Y-35.174 E23.20583
G1 X21.337 Y-34.721 E23.21626
G1 X21.534 Y-34.367 E23.22299
G1 X21.65 Y-33.834 E23.23206
G1 X21.649 Y20.79 E24.14046
G0 F3000 X21.249 Y20.79
G1 F1500 X21.14 Y21.27 E24.14865
G1 X20.927 Y21.632 E24.15564
G1 X20.59 Y21.96 E24.16346
G1 X20.236 Y22.16 E24.17022
G1 X19.735 Y22.27 E24.17875
G1 X-19.842 Y22.273 E24.83692
G1 X-20.162 Y22.21 E24.84234
G1 X-20.67 Y21.916 E24.8521
G1 X-20.961 Y21.625 E24.85894
G1 X-21.25 Y20.887 E24.87212
G1 X-21.249 Y-33.811 E25.78176
G1 X-21 Y-34.538 E25.79454
G1 X-20.658 Y-34.916 E25.80301
G1 X-20.42 Y-35.049 E25.80755
G1 X-19.845 Y-35.227 E25.81756
G1 X19.771 Y-35.226 E26.47637
G1 X20.251 Y-35.117 E26.48456
G1 X20.615 Y-34.898 E26.49162
G1 X21.048 Y-34.445 E26.50205
G1 X21.145 Y-34.274 E26.50531
G1 X21.25 Y-33.834 E26.51284
G1 X21.249 Y20.79 E27.42124
G0 F3000 X20.849 Y20.79
G1 F1500 X20.752 Y21.172 E27.42779
G1 X20.648 Y21.345 E27.43115
G1 X20.311 Y21.673 E27.43897
G1 X20.141 Y21.771 E27.44223
G1 X19.735 Y21.87 E27.44918
G1 X-19.842 Y21.873 E28.10735
G1 X-20.073 Y21.82 E28.11129
G1 X-20.457 Y21.578 E28.11884
G1 X-20.618 Y21.403 E28.1228
G1 X-20.85 Y20.81 E28.13338
G1 X-20.849 Y-33.745 E29.04064
G1 X-20.648 Y-34.331 E29.05094
G1 X-20.446 Y-34.577 E29.05623
G1 X-20.302 Y-34.667 E29.05906
G1 X-19.785 Y-34.827 E29.06806
G1 X19.771 Y-34.826 E29.72588
G1 X20.152 Y-34.729 E29.73242
G1 X20.326 Y-34.622 E29.73581
G1 X20.759 Y-34.169 E29.74623
G1 X20.85 Y-33.834 E29.75201
G1 X20.849 Y20.79 E30.66041
G1 F2400 E24.16041
G0 F3000 X-20.45 Y20.737
G1 F2400 E30.66041
G1 F1500 X-20.449 Y-33.745 E31.56645
G1 X-20.276 Y-34.184 E31.57429
G1 X-20.167 Y-34.29 E31.57682
G1 X-19.785 Y-34.427 E31.58357
G1 X19.771 Y-34.426 E32.24139
G1 X20.037 Y-34.346 E32.24601
G1 X20.402 Y-33.964 E32.2548
G1 X20.45 Y-33.834 E32.2571
G1 X20.449 Y20.79 E33.1655
G1 X20.369 Y21.058 E33.17015
G1 X20.032 Y21.386 E33.17797
G1 X19.735 Y21.47 E33.18311
G1 X-19.842 Y21.473 E33.84127
G1 X-19.956 Y21.438 E33.84326
G1 X-20.23 Y21.249 E33.84879
G1 X-20.303 Y21.156 E33.85076
G1 X-20.45 Y20.737 E33.85814
G1 F2400 E27.35814
;MESH:????????????.stl
G0 F3000 X-19.831 Y20.699
G0 X-18.449 Y19.472
;TYPE:WALL-INNER
G1 F2400 E33.85814
G1 F1500 X18.449 Y19.472 E34.47176
G1 X18.449 Y-32.425 E35.33481
G1 X-18.448 Y-32.426 E35.94841
G1 X-18.449 Y19.472 E36.81148
G0 F3000 X-18.849 Y19.872
G1 F1500 X18.849 Y19.872 E37.4384
G1 X18.849 Y-32.825 E38.31475
G1 X-18.848 Y-32.826 E38.94166
G1 X-18.849 Y19.872 E39.81803
G0 F3000 X-19.249 Y20.272
G1 F1500 X19.249 Y20.272 E40.45825
G1 X19.249 Y-33.225 E41.34791
G1 X-19.248 Y-33.226 E41.98812
G1 X-19.249 Y20.272 E42.87779
G0 F3000 X-19.649 Y20.672
G1 F1500 X19.647 Y20.671 E43.53129
G1 X19.649 Y-33.625 E44.43423
G1 X-19.645 Y-33.626 E45.0877
G1 X-19.649 Y20.672 E45.99068
G0 F3000 X-19.967 Y20.94
;TYPE:WALL-OUTER
G1 F1500 X-19.776 Y21.073 E45.99416
G1 X19.683 Y21.073 E46.58474
G1 X19.827 Y21.046 E46.58694
G1 X20.002 Y20.893 E46.59042
G1 X20.049 Y20.755 E46.5926
G1 X20.049 Y-33.771 E47.40869
G1 X19.872 Y-33.979 E47.41278
G1 X19.735 Y-34.026 E47.41495
G1 X-19.745 Y-34.026 E48.00585
G1 X-19.96 Y-33.905 E48.00954
G1 X-20.048 Y-33.703 E48.01284
G1 X-20.049 Y20.719 E48.82737
G1 X-19.967 Y20.94 E48.8309
G0 F3000 X-19.803 Y21.054
G0 X-19.38 Y20.403
G0 X-18.348 Y19.111
G0 X-18.089 Y19.112
;TYPE:SKIN
G1 F1500 X-18.088 Y-32.066 E49.682
G1 X18.089 Y-32.065 E50.28362
G1 X18.089 Y19.112 E51.1347
G1 X-18.089 Y19.112 E51.73634
G0 F3000 X-17.292 Y18.911
G1 F1500 X-17.889 Y18.314 E51.75038
G0 F3000 X-17.889 Y17.749
G1 F1500 X-16.726 Y18.911 E51.77772
G0 F3000 X-16.16 Y18.911
G1 F1500 X-17.889 Y17.183 E51.81837
G0 F3000 X-17.889 Y16.617
G1 F1500 X-15.595 Y18.911 E51.87233
G0 F3000 X-15.029 Y18.911
G1 F1500 X-17.889 Y16.052 E51.93958
G0 F3000 X-17.889 Y15.486
G1 F1500 X-14.463 Y18.911 E52.02014
G0 F3000 X-13.898 Y18.911
G1 F1500 X-17.889 Y14.92 E52.114
G0 F3000 X-17.889 Y14.354
G1 F1500 X-13.332 Y18.911 E52.22118
G0 F3000 X-12.766 Y18.911
G1 F1500 X-17.889 Y13.789 E52.34165
G0 F3000 X-17.889 Y13.223
G1 F1500 X-12.201 Y18.911 E52.47542
G0 F3000 X-11.635 Y18.911
G1 F1500 X-17.889 Y12.657 E52.62251
G0 F3000 X-17.889 Y12.092
G1 F1500 X-11.069 Y18.911 E52.78289
G0 F3000 X-10.504 Y18.911
G1 F1500 X-17.889 Y11.526 E52.95657
G0 F3000 X-17.889 Y10.96
G1 F1500 X-9.938 Y18.911 E53.14357
G0 F3000 X-9.372 Y18.911
G1 F1500 X-17.889 Y10.395 E53.34386
G0 F3000 X-17.889 Y9.829
G1 F1500 X-8.807 Y18.911 E53.55746
G0 F3000 X-8.241 Y18.911
G1 F1500 X-17.889 Y9.263 E53.78437
G0 F3000 X-17.889 Y8.698
G1 F1500 X-7.675 Y18.911 E54.02457
G0 F3000 X-7.109 Y18.911
G1 F1500 X-17.889 Y8.132 E54.27809
G0 F3000 X-17.889 Y7.566
G1 F1500 X-6.544 Y18.911 E54.54491
G0 F3000 X-5.978 Y18.911
G1 F1500 X-17.889 Y7.001 E54.82502
G0 F3000 X-17.889 Y6.435
G1 F1500 X-5.412 Y18.911 E55.11845
G0 F3000 X-4.847 Y18.911
G1 F1500 X-17.889 Y5.869 E55.42518
G0 F3000 X-17.889 Y5.304
G1 F1500 X-4.281 Y18.911 E55.74521
G0 F3000 X-3.715 Y18.911
G1 F1500 X-17.889 Y4.738 E56.07854
G0 F3000 X-17.889 Y4.172
G1 F1500 X-3.15 Y18.911 E56.42518
G0 F3000 X-2.584 Y18.911
G1 F1500 X-17.889 Y3.606 E56.78513
G0 F3000 X-17.889 Y3.041
G1 F1500 X-2.018 Y18.911 E57.15838
G0 F3000 X-1.453 Y18.911
G1 F1500 X-17.889 Y2.475 E57.54493
G0 F3000 X-17.889 Y1.909
G1 F1500 X-.887 Y18.911 E57.94479
G0 F3000 X-.321 Y18.911
G1 F1500 X-17.889 Y1.344 E58.35795
G0 F3000 X-17.889 Y0.778
G1 F1500 X0.243 Y18.911 E58.7844
G0 F3000 X0.809 Y18.911
G1 F1500 X-17.889 Y0.212 E59.22416
G0 F3000 X-17.889 Y-.352
G1 F1500 X1.375 Y18.911 E59.67721
G0 F3000 X1.941 Y18.911
G1 F1500 X-17.889 Y-.918 E60.14357
G0 F3000 X-17.889 Y-1.484
G1 F1500 X2.506 Y18.911 E60.62323
G0 F3000 X3.072 Y18.911
G1 F1500 X-17.889 Y-2.049 E61.11619
G0 F3000 X-17.889 Y-2.615
G1 F1500 X3.638 Y18.911 E61.62246
G0 F3000 X4.203 Y18.911
G1 F1500 X-17.889 Y-3.181 E62.14203
G0 F3000 X-17.889 Y-3.746
G1 F1500 X4.769 Y18.911 E62.6749
G0 F3000 X5.335 Y18.911
G1 F1500 X-17.889 Y-4.312 E63.22108
G0 F3000 X-17.889 Y-4.878
G1 F1500 X5.9 Y18.911 E63.78056
G0 F3000 X6.466 Y18.911
G1 F1500 X-17.889 Y-5.444 E64.35335
G0 F3000 X-17.889 Y-6.009
G1 F1500 X7.032 Y18.911 E64.93944
G0 F3000 X7.597 Y18.911
G1 F1500 X-17.889 Y-6.575 E65.53884
G0 F3000 X-17.889 Y-7.141
G1 F1500 X8.163 Y18.911 E66.15154
G0 F3000 X8.729 Y18.911
G1 F1500 X-17.889 Y-7.706 E66.77754
G0 F3000 X-17.889 Y-8.272
G1 F1500 X9.294 Y18.911 E67.41684
G0 F3000 X9.86 Y18.911
G1 F1500 X-17.889 Y-8.838 E68.06946
G0 F3000 X-17.889 Y-9.403
G1 F1500 X10.426 Y18.911 E68.73537
G0 F3000 X10.991 Y18.911
G1 F1500 X-17.889 Y-9.969 E69.41459
G0 F3000 X-17.889 Y-10.535
G1 F1500 X11.557 Y18.911 E70.10711
G0 F3000 X12.123 Y18.911
G1 F1500 X-17.889 Y-11.1 E70.81293
G0 F3000 X-17.889 Y-11.666
G1 F1500 X12.689 Y18.911 E71.53207
G0 F3000 X13.254 Y18.911
G1 F1500 X-17.889 Y-12.232 E72.26451
G0 F3000 X-17.889 Y-12.797
G1 F1500 X13.82 Y18.911 E73.01024
G0 F3000 X14.386 Y18.911
G1 F1500 X-17.889 Y-13.363 E73.76929
G0 F3000 X-17.889 Y-13.929
G1 F1500 X14.951 Y18.911 E74.54163
G0 F3000 X15.517 Y18.911
G1 F1500 X-17.889 Y-14.494 E75.32728
G0 F3000 X-17.889 Y-15.06
G1 F1500 X16.083 Y18.911 E76.12624
G0 F3000 X16.648 Y18.911
G1 F1500 X-17.889 Y-15.626 E76.9385
G0 F3000 X-17.889 Y-16.192
G1 F1500 X17.214 Y18.911 E77.76406
G0 F3000 X17.78 Y18.911
G1 F1500 X-17.889 Y-16.757 E78.60293
G0 F3000 X-17.889 Y-17.323
G1 F1500 X17.889 Y18.454 E79.44437
G0 F3000 X17.889 Y17.889
G1 F1500 X-17.889 Y-17.889 E80.28581
G0 F3000 X-17.889 Y-18.454
G1 F1500 X17.889 Y17.323 E81.12724
G0 F3000 X17.889 Y16.757
G1 F1500 X-17.889 Y-19.02 E81.96867
G0 F3000 X-17.889 Y-19.586
G1 F1500 X17.889 Y16.192 E82.81012
G0 F3000 X17.889 Y15.626
G1 F1500 X-17.889 Y-20.151 E83.65155
G0 F3000 X-17.889 Y-20.717
G1 F1500 X17.889 Y15.06 E84.49298
G0 F3000 X17.889 Y14.494
G1 F1500 X-17.889 Y-21.283 E85.33441
G0 F3000 X-17.889 Y-21.848
G1 F1500 X17.889 Y13.929 E86.17584
G0 F3000 X17.889 Y13.363
G1 F1500 X-17.889 Y-22.414 E87.01728
G0 F3000 X-17.889 Y-22.98
G1 F1500 X17.889 Y12.797 E87.85871
G0 F3000 X17.889 Y12.232
G1 F1500 X-17.889 Y-23.545 E88.70014
G0 F3000 X-17.889 Y-24.111
G1 F1500 X17.889 Y11.666 E89.54157
G0 F3000 X17.889 Y11.1
G1 F1500 X-17.889 Y-24.677 E90.383
G0 F3000 X-17.889 Y-25.243
G1 F1500 X17.889 Y10.535 E91.22445
G0 F3000 X17.889 Y9.969
G1 F1500 X-17.889 Y-25.808 E92.06588
G0 F3000 X-17.889 Y-26.374
G1 F1500 X17.889 Y9.403 E92.90731
G0 F3000 X17.889 Y8.838
G1 F1500 X-17.889 Y-26.94 E93.74876
G0 F3000 X-17.889 Y-27.505
G1 F1500 X17.889 Y8.272 E94.59019
G0 F3000 X17.889 Y7.706
G1 F1500 X-17.889 Y-28.071 E95.43162
G0 F3000 X-17.889 Y-28.637
G1 F1500 X17.889 Y7.141 E96.27306
G0 F3000 X17.889 Y6.575
G1 F1500 X-17.889 Y-29.202 E97.11449
G0 F3000 X-17.889 Y-29.768
G1 F1500 X17.889 Y6.009 E97.95593
G0 F3000 X17.889 Y5.444
G1 F1500 X-17.889 Y-30.334 E98.79737
G0 F3000 X-17.889 Y-30.899
G1 F1500 X17.889 Y4.878 E99.6388
G0 F3000 X17.889 Y4.312
G1 F1500 X-17.889 Y-31.465 E100.48023
G0 F3000 X-17.722 Y-31.864
G1 F1500 X17.889 Y3.746 E101.31774
G0 F3000 X17.889 Y3.181
G1 F1500 X-17.156 Y-31.864 E102.14194
G0 F3000 X-16.59 Y-31.864
G1 F1500 X17.889 Y2.615 E102.95284
G0 F3000 X17.889 Y2.049
G1 F1500 X-16.025 Y-31.864 E103.75043
G0 F3000 X-15.459 Y-31.864
G1 F1500 X17.889 Y1.484 E104.53472
G0 F3000 X17.889 Y0.918
G1 F1500 X-14.893 Y-31.864 E105.30571
G0 F3000 X-14.328 Y-31.864
G1 F1500 X17.889 Y0.352 E106.06339
G0 F3000 X17.889 Y-.212
G1 F1500 X-13.762 Y-31.864 E106.80778
G0 F3000 X-13.196 Y-31.864
G1 F1500 X17.889 Y-.778 E107.53887
G0 F3000 X17.889 Y-1.344
G1 F1500 X-12.631 Y-31.864 E108.25665
G0 F3000 X-12.065 Y-31.864
G1 F1500 X17.889 Y-1.909 E108.96113
G0 F3000 X17.889 Y-2.475
G1 F1500 X-11.499 Y-31.864 E109.65231
G0 F3000 X-10.933 Y-31.864
G1 F1500 X17.889 Y-3.041 E110.33017
G0 F3000 X17.889 Y-3.606
G1 F1500 X-10.368 Y-31.864 E110.99474
G0 F3000 X-9.802 Y-31.864
G1 F1500 X17.889 Y-4.172 E111.646
G0 F3000 X17.889 Y-4.738
G1 F1500 X-9.236 Y-31.864 E112.28395
G0 F3000 X-8.671 Y-31.864
G1 F1500 X17.889 Y-5.304 E112.9086
G0 F3000 X17.889 Y-5.869
G1 F1500 X-8.105 Y-31.864 E113.51995
G0 F3000 X-7.539 Y-31.864
G1 F1500 X17.889 Y-6.435 E114.11799
G0 F3000 X17.889 Y-7.001
G1 F1500 X-6.974 Y-31.864 E114.70273
G0 F3000 X-6.408 Y-31.864
G1 F1500 X17.889 Y-7.566 E115.27417
G0 F3000 X17.889 Y-8.132
G1 F1500 X-5.842 Y-31.864 E115.8323
G0 F3000 X-5.277 Y-31.864
G1 F1500 X17.889 Y-8.698 E116.37713
G0 F3000 X17.889 Y-9.263
