;FLAVOR:Marlin
;TIME:2953
;Filament used: 4.3544m
;Layer height: 0.2
;MINX:-23.85
;MINY:-31.35
;MINZ:0.1
;MAXX:23.85
;MAXY:31.35
;MAXZ:12.5
;Generated with Cura_SteamEngine 5.3.0
M82 ;absolute extrusion mode
G21 ; millimeter units
G90 ; absolute coordinates
M82 ; E absolute
M140 S60
M104 S220
M190 S60
M109 S220
G28 ; home axis
M420 S1 ; enable mesh leveling
; Lower nozzle and move to start position
G1 Z150
G1 X-130 Y0 Z0.4 F3000
; Extrude about 40 mm by printing a 90 degree arc
G3 X0 Y-130 I130 Z0.3 E40 F2700
; Retract and move nozzle up
G92 E0
G1 E-1.5 F1800
G0 Z0.5
G1 E0 F300

G92 E0
G92 E0
G1 F2400 E-6.5
;LAYER_COUNT:61
;LAYER:0
M107
G1 F3000 Z0.7
G0 X-23.45 Y26.464 Z0.7
;TYPE:SKIRT
G1 F3000 Z0.1
G1 F2400 E0
G1 F1500 X-23.449 Y-26.616 E0.88272
G1 X-23.438 Y-27.316 E0.89437
G1 X-23.39 Y-27.82 E0.90279
G1 X-23.2 Y-28.495 E0.91445
G1 X-23.001 Y-28.96 E0.92286
G1 X-22.731 Y-29.387 E0.93126
G1 X-22.18 Y-29.983 E0.94476
G1 X-21.621 Y-30.4 E0.95636
G1 X-21.173 Y-30.635 E0.96477
G1 X-20.503 Y-30.851 E0.97648
G1 X-19.749 Y-30.94 E0.9891
G1 X-18.991 Y-30.95 E1.00171
G1 X19.108 Y-30.949 E1.6353
G1 X19.811 Y-30.939 E1.64699
G1 X20.314 Y-30.892 E1.65539
G1 X20.915 Y-30.736 E1.66572
G1 X21.477 Y-30.491 E1.67591
G1 X21.903 Y-30.219 E1.68432
G1 X22.481 Y-29.682 E1.69744
G1 X22.897 Y-29.127 E1.70897
G1 X23.133 Y-28.679 E1.71739
G1 X23.352 Y-28.001 E1.72924
G1 X23.44 Y-27.251 E1.7418
G1 X23.45 Y-26.524 E1.75389
G1 X23.449 Y26.597 E2.6373
G1 X23.438 Y27.316 E2.64926
G1 X23.39 Y27.819 E2.65766
G1 X23.199 Y28.5 E2.66942
G1 X22.999 Y28.964 E2.67782
G1 X22.728 Y29.391 E2.68623
G1 X22.161 Y30.003 E2.70011
G1 X21.571 Y30.445 E2.71237
G1 X21.124 Y30.68 E2.72077
G1 X20.645 Y30.841 E2.72917
G1 X19.908 Y30.938 E2.74153
G1 X18.991 Y30.95 E2.75678
G1 X-19.108 Y30.949 E3.39037
G1 X-19.811 Y30.939 E3.40206
G1 X-20.314 Y30.892 E3.41047
G1 X-20.915 Y30.736 E3.42079
G1 X-21.477 Y30.491 E3.43099
G1 X-21.903 Y30.219 E3.43939
G1 X-22.485 Y29.678 E3.45261
G1 X-22.901 Y29.12 E3.46418
G1 X-23.135 Y28.673 E3.47257
G1 X-23.351 Y28.003 E3.48428
G1 X-23.44 Y27.247 E3.49694
G1 X-23.45 Y26.464 E3.50996
G0 F3000 X-23.85 Y26.464
G1 F1500 X-23.849 Y-26.622 E4.39278
G1 X-23.838 Y-27.322 E4.40443
G1 X-23.785 Y-27.894 E4.41398
G1 X-23.568 Y-28.652 E4.42709
G1 X-23.339 Y-29.174 E4.43657
G1 X-23.048 Y-29.634 E4.44562
G1 X-22.45 Y-30.281 E4.46028
G1 X-21.86 Y-30.721 E4.47252
G1 X-21.328 Y-31.006 E4.48255
G1 X-20.591 Y-31.243 E4.49543
G1 X-19.754 Y-31.34 E4.50944
G1 X-18.991 Y-31.35 E4.52213
G1 X19.114 Y-31.349 E5.15582
G1 X19.817 Y-31.339 E5.16751
G1 X20.414 Y-31.279 E5.17749
G1 X21.075 Y-31.103 E5.18886
G1 X21.637 Y-30.858 E5.19906
G1 X22.148 Y-30.537 E5.20909
G1 X22.78 Y-29.95 E5.22344
G1 X23.217 Y-29.367 E5.23556
G1 X23.504 Y-28.834 E5.24562
G1 X23.744 Y-28.089 E5.25864
G1 X23.84 Y-27.257 E5.27257
G1 X23.85 Y-26.524 E5.28476
G1 X23.849 Y26.603 E6.16826
G1 X23.838 Y27.322 E6.18022
G1 X23.785 Y27.892 E6.18974
G1 X23.584 Y28.608 E6.20211
G1 X23.337 Y29.178 E6.21244
G1 X23.047 Y29.635 E6.22144
G1 X22.429 Y30.302 E6.23656
G1 X21.811 Y30.765 E6.2494
G1 X21.31 Y31.034 E6.25886
G1 X20.734 Y31.233 E6.269
G1 X19.96 Y31.335 E6.28198
G1 X18.991 Y31.35 E6.2981
G1 X-19.114 Y31.349 E6.93178
G1 X-19.817 Y31.339 E6.94348
G1 X-20.414 Y31.279 E6.95345
G1 X-21.075 Y31.103 E6.96483
G1 X-21.637 Y30.858 E6.97503
G1 X-22.148 Y30.537 E6.98506
G1 X-22.785 Y29.945 E6.99952
G1 X-23.222 Y29.359 E7.01168
G1 X-23.506 Y28.827 E7.02171
G1 X-23.743 Y28.091 E7.03457
G1 X-23.84 Y27.252 E7.04861
G1 X-23.85 Y26.464 E7.06172
G1 F2400 E0.56172
;MESH:????????????.stl
G0 F3000 X-19.83 Y26.466
G0 X-18.449 Y25.949
;TYPE:WALL-INNER
G1 F2400 E7.06172
G1 F1500 X18.449 Y25.949 E7.67533
G1 X18.449 Y-25.948 E8.53838
G1 X-18.448 Y-25.949 E9.15198
G1 X-18.449 Y25.949 E10.01505
G0 F3000 X-18.849 Y26.349
G1 F1500 X18.849 Y26.349 E10.64197
G1 X18.849 Y-26.348 E11.51833
G1 X-18.848 Y-26.349 E12.14523
G1 X-18.849 Y26.349 E13.0216
G0 F3000 X-19.249 Y26.749
G1 F1500 X19.249 Y26.749 E13.66183
G1 X19.249 Y-26.748 E14.55148
G1 X-19.248 Y-26.749 E15.19169
G1 X-19.249 Y26.749 E16.08137
G0 F3000 X-19.649 Y27.149
G1 F1500 X19.649 Y27.149 E16.7349
G1 X19.649 Y-27.148 E17.63786
G1 X-19.648 Y-27.149 E18.29137
G1 X-19.649 Y27.149 E19.19435
G0 F3000 X-19.87 Y27.501
;TYPE:WALL-OUTER
G1 F1500 X-19.733 Y27.549 E19.19652
G1 X19.697 Y27.55 E19.78667
G1 X19.826 Y27.523 E19.78865
G1 X20.001 Y27.37 E19.79213
G1 X20.049 Y27.233 E19.7943
G1 X20.049 Y-27.197 E20.60896
G1 X20.023 Y-27.326 E20.61092
G1 X19.87 Y-27.502 E20.61442
G1 X19.733 Y-27.549 E20.61658
G1 X-19.697 Y-27.549 E21.20673
G1 X-19.826 Y-27.523 E21.2087
G1 X-20.002 Y-27.37 E21.21219
G1 X-20.049 Y-27.233 E21.21436
G1 X-20.05 Y27.197 E22.02902
G1 X-20.023 Y27.326 E22.03099
G1 X-19.87 Y27.501 E22.03447
G0 F3000 X-19.733 Y27.549
G0 X-19.678 Y27.549
G0 X-19.38 Y26.879
G0 X-18.348 Y25.588
G0 X-18.089 Y25.589
;TYPE:SKIN
G1 F1500 X-18.088 Y-25.589 E22.88556
G1 X18.089 Y-25.588 E23.48719
G1 X18.089 Y25.589 E24.33827
G1 X-18.089 Y25.589 E24.93991
G0 F3000 X-17.603 Y25.388
G1 F1500 X-17.889 Y25.102 E24.94664
G0 F3000 X-17.889 Y24.537
G1 F1500 X-17.037 Y25.388 E24.96666
G0 F3000 X-16.472 Y25.388
G1 F1500 X-17.889 Y23.971 E24.99999
G0 F3000 X-17.889 Y23.405
G1 F1500 X-15.906 Y25.388 E25.04663
G0 F3000 X-15.34 Y25.388
G1 F1500 X-17.889 Y22.84 E25.10656
G0 F3000 X-17.889 Y22.274
G1 F1500 X-14.774 Y25.388 E25.17981
G0 F3000 X-14.209 Y25.388
G1 F1500 X-17.889 Y21.708 E25.26636
G0 F3000 X-17.889 Y21.143
G1 F1500 X-13.643 Y25.388 E25.36621
G0 F3000 X-13.077 Y25.388
G1 F1500 X-17.889 Y20.577 E25.47936
G0 F3000 X-17.889 Y20.011
G1 F1500 X-12.512 Y25.388 E25.60582
G0 F3000 X-11.946 Y25.388
G1 F1500 X-17.889 Y19.446 E25.74558
G0 F3000 X-17.889 Y18.88
G1 F1500 X-11.38 Y25.388 E25.89865
G0 F3000 X-10.815 Y25.388
G1 F1500 X-17.889 Y18.314 E26.06502
G0 F3000 X-17.889 Y17.749
G1 F1500 X-10.249 Y25.388 E26.24469
G0 F3000 X-9.683 Y25.388
G1 F1500 X-17.889 Y17.183 E26.43767
G0 F3000 X-17.889 Y16.617
G1 F1500 X-9.118 Y25.388 E26.64395
G0 F3000 X-8.552 Y25.388
G1 F1500 X-17.889 Y16.052 E26.86353
G0 F3000 X-17.889 Y15.486
G1 F1500 X-7.986 Y25.388 E27.09642
G0 F3000 X-7.421 Y25.388
G1 F1500 X-17.889 Y14.92 E27.34262
G0 F3000 X-17.889 Y14.354
G1 F1500 X-6.855 Y25.388 E27.60212
G0 F3000 X-6.289 Y25.388
G1 F1500 X-17.889 Y13.789 E27.87492
G0 F3000 X-17.889 Y13.223
G1 F1500 X-5.724 Y25.388 E28.16102
G0 F3000 X-5.158 Y25.388
G1 F1500 X-17.889 Y12.657 E28.46044
G0 F3000 X-17.889 Y12.092
G1 F1500 X-4.592 Y25.388 E28.77315
G0 F3000 X-4.026 Y25.388
G1 F1500 X-17.889 Y11.526 E29.09917
G0 F3000 X-17.889 Y10.96
G1 F1500 X-3.461 Y25.388 E29.4385
G0 F3000 X-2.895 Y25.388
G1 F1500 X-17.889 Y10.395 E29.79112
G0 F3000 X-17.889 Y9.829
G1 F1500 X-2.329 Y25.388 E30.15706
G0 F3000 X-1.764 Y25.388
G1 F1500 X-17.889 Y9.263 E30.53629
G0 F3000 X-17.889 Y8.698
G1 F1500 X-1.198 Y25.388 E30.92883
G0 F3000 X-.632 Y25.388
G1 F1500 X-17.889 Y8.132 E31.33468
G0 F3000 X-17.889 Y7.566
G1 F1500 X-0.067 Y25.388 E31.75382
G0 F3000 X0.498 Y25.388
G1 F1500 X-17.889 Y7.001 E32.18626
G0 F3000 X-17.889 Y6.435
G1 F1500 X1.064 Y25.388 E32.632
G0 F3000 X1.629 Y25.388
G1 F1500 X-17.889 Y5.869 E33.09105
G0 F3000 X-17.889 Y5.304
G1 F1500 X2.195 Y25.388 E33.56339
G0 F3000 X2.761 Y25.388
G1 F1500 X-17.889 Y4.738 E34.04905
G0 F3000 X-17.889 Y4.172
G1 F1500 X3.326 Y25.388 E34.548
G0 F3000 X3.892 Y25.388
G1 F1500 X-17.889 Y3.606 E35.06027
G0 F3000 X-17.889 Y3.041
G1 F1500 X4.458 Y25.388 E35.58584
G0 F3000 X5.023 Y25.388
G1 F1500 X-17.889 Y2.475 E36.12471
G0 F3000 X-17.889 Y1.909
G1 F1500 X5.589 Y25.388 E36.67688
G0 F3000 X6.155 Y25.388
G1 F1500 X-17.889 Y1.344 E37.24236
G0 F3000 X-17.889 Y0.778
G1 F1500 X6.721 Y25.388 E37.82115
G0 F3000 X7.286 Y25.388
G1 F1500 X-17.889 Y0.212 E38.41324
G0 F3000 X-17.888 Y-.352
G1 F1500 X7.852 Y25.388 E39.01861
G0 F3000 X8.418 Y25.388
G1 F1500 X-17.888 Y-.917 E39.63727
G0 F3000 X-17.888 Y-1.483
G1 F1500 X8.983 Y25.388 E40.26924
G0 F3000 X9.549 Y25.388
G1 F1500 X-17.888 Y-2.049 E40.91451
G0 F3000 X-17.888 Y-2.614
G1 F1500 X10.115 Y25.388 E41.57309
G0 F3000 X10.68 Y25.388
G1 F1500 X-17.888 Y-3.18 E42.24496
G0 F3000 X-17.888 Y-3.746
G1 F1500 X11.246 Y25.388 E42.93015
G0 F3000 X11.812 Y25.388
G1 F1500 X-17.888 Y-4.311 E43.62864
G0 F3000 X-17.888 Y-4.877
G1 F1500 X12.377 Y25.388 E44.34042
G0 F3000 X12.943 Y25.388
G1 F1500 X-17.888 Y-5.443 E45.06552
G0 F3000 X-17.888 Y-6.008
G1 F1500 X13.509 Y25.388 E45.80392
G0 F3000 X14.074 Y25.388
G1 F1500 X-17.888 Y-6.574 E46.55562
G0 F3000 X-17.888 Y-7.14
G1 F1500 X14.64 Y25.388 E47.32062
G0 F3000 X15.206 Y25.388
G1 F1500 X-17.888 Y-7.706 E48.09894
G0 F3000 X-17.888 Y-8.271
G1 F1500 X15.772 Y25.388 E48.89056
G0 F3000 X16.337 Y25.388
G1 F1500 X-17.888 Y-8.837 E49.69548
G0 F3000 X-17.888 Y-9.403
G1 F1500 X16.903 Y25.388 E50.51371
G0 F3000 X17.469 Y25.388
G1 F1500 X-17.888 Y-9.968 E51.34525
G0 F3000 X-17.888 Y-10.534
G1 F1500 X17.889 Y25.243 E52.18667
G0 F3000 X17.889 Y24.677
G1 F1500 X-17.888 Y-11.1 E53.02809
G0 F3000 X-17.888 Y-11.665
G1 F1500 X17.889 Y24.111 E53.86949
G0 F3000 X17.889 Y23.545
G1 F1500 X-17.888 Y-12.231 E54.7109
G0 F3000 X-17.888 Y-12.797
G1 F1500 X17.889 Y22.98 E55.55232
G0 F3000 X17.889 Y22.414
G1 F1500 X-17.888 Y-13.362 E56.39373
G0 F3000 X-17.888 Y-13.928
G1 F1500 X17.889 Y21.848 E57.23514
G0 F3000 X17.889 Y21.283
G1 F1500 X-17.888 Y-14.494 E58.07656
G0 F3000 X-17.888 Y-15.059
G1 F1500 X17.889 Y20.717 E58.91797
G0 F3000 X17.889 Y20.151
G1 F1500 X-17.888 Y-15.625 E59.75938
G0 F3000 X-17.888 Y-16.191
G1 F1500 X17.889 Y19.586 E60.6008
G0 F3000 X17.889 Y19.02
G1 F1500 X-17.888 Y-16.757 E61.44222
G0 F3000 X-17.888 Y-17.322
G1 F1500 X17.889 Y18.454 E62.28363
G0 F3000 X17.889 Y17.889
G1 F1500 X-17.888 Y-17.888 E63.12505
G0 F3000 X-17.888 Y-18.454
G1 F1500 X17.889 Y17.323 E63.96647
G0 F3000 X17.889 Y16.757
G1 F1500 X-17.888 Y-19.019 E64.80787
G0 F3000 X-17.888 Y-19.585
G1 F1500 X17.889 Y16.192 E65.64929
G0 F3000 X17.889 Y15.626
G1 F1500 X-17.888 Y-20.151 E66.49071
G0 F3000 X-17.888 Y-20.716
G1 F1500 X17.889 Y15.06 E67.33212
G0 F3000 X17.889 Y14.494
G1 F1500 X-17.888 Y-21.282 E68.17353
G0 F3000 X-17.888 Y-21.848
G1 F1500 X17.889 Y13.929 E69.01495
G0 F3000 X17.889 Y13.363
G1 F1500 X-17.888 Y-22.413 E69.85636
G0 F3000 X-17.888 Y-22.979
G1 F1500 X17.889 Y12.797 E70.69777
G0 F3000 X17.889 Y12.232
G1 F1500 X-17.888 Y-23.545 E71.53919
G0 F3000 X-17.888 Y-24.11
G1 F1500 X17.889 Y11.666 E72.3806
G0 F3000 X17.889 Y11.1
G1 F1500 X-17.888 Y-24.676 E73.22201
G0 F3000 X-17.888 Y-25.242
G1 F1500 X17.889 Y10.535 E74.06343
G0 F3000 X17.889 Y9.969
G1 F1500 X-17.468 Y-25.387 E74.89496
G0 F3000 X-16.902 Y-25.387
G1 F1500 X17.889 Y9.403 E75.71318
G0 F3000 X17.889 Y8.838
G1 F1500 X-16.336 Y-25.387 E76.5181
G0 F3000 X-15.771 Y-25.387
G1 F1500 X17.889 Y8.272 E77.30972
G0 F3000 X17.889 Y7.706
G1 F1500 X-15.205 Y-25.387 E78.08802
G0 F3000 X-14.639 Y-25.387
G1 F1500 X17.889 Y7.141 E78.85303
G0 F3000 X17.889 Y6.575
G1 F1500 X-14.074 Y-25.387 E79.60474
G0 F3000 X-13.508 Y-25.387
G1 F1500 X17.889 Y6.009 E80.34314
G0 F3000 X17.889 Y5.444
G1 F1500 X-12.942 Y-25.387 E81.06824
G0 F3000 X-12.377 Y-25.387
G1 F1500 X17.889 Y4.878 E81.78004
G0 F3000 X17.889 Y4.312
G1 F1500 X-11.811 Y-25.387 E82.47852
G0 F3000 X-11.245 Y-25.387
G1 F1500 X17.889 Y3.746 E83.1637
G0 F3000 X17.889 Y3.181
G1 F1500 X-10.68 Y-25.387 E83.83558
G0 F3000 X-10.114 Y-25.387
G1 F1500 X17.889 Y2.615 E84.49416
G0 F3000 X17.889 Y2.049
G1 F1500 X-9.548 Y-25.387 E85.13942
G0 F3000 X-8.983 Y-25.387
G1 F1500 X17.889 Y1.484 E85.7714
G0 F3000 X17.889 Y0.918
G1 F1500 X-8.417 Y-25.387 E86.39007
G0 F3000 X-7.851 Y-25.387
G1 F1500 X17.889 Y0.352 E86.99542
G0 F3000 X17.889 Y-.212
G1 F1500 X-7.286 Y-25.387 E87.5875
G0 F3000 X-6.72 Y-25.387
G1 F1500 X17.889 Y-.778 E88.16626
G0 F3000 X17.889 Y-1.344
G1 F1500 X-6.154 Y-25.387 E88.73172
G0 F3000 X-5.588 Y-25.387
G1 F1500 X17.889 Y-1.909 E89.28387
G0 F3000 X17.889 Y-2.475
G1 F1500 X-5.023 Y-25.387 E89.82273
G0 F3000 X-4.457 Y-25.387
G1 F1500 X17.889 Y-3.041 E90.34827
G0 F3000 X17.889 Y-3.606
G1 F1500 X-3.891 Y-25.387 E90.86052
G0 F3000 X-3.326 Y-25.387
G1 F1500 X17.889 Y-4.172 E91.35946
G0 F3000 X17.889 Y-4.738
G1 F1500 X-2.76 Y-25.387 E91.84509
G0 F3000 X-2.194 Y-25.387
G1 F1500 X17.889 Y-5.304 E92.31741
G0 F3000 X17.889 Y-5.869
G1 F1500 X-1.629 Y-25.387 E92.77645
G0 F3000 X-1.063 Y-25.387
G1 F1500 X17.889 Y-6.435 E93.22217
G0 F3000 X17.889 Y-7.001
G1 F1500 X-.497 Y-25.387 E93.65458
G0 F3000 X0.068 Y-25.387
G1 F1500 X17.889 Y-7.566 E94.0737
G0 F3000 X17.889 Y-8.132
G1 F1500 X0.634 Y-25.387 E94.47951
G0 F3000 X1.199 Y-25.387
G1 F1500 X17.889 Y-8.698 E94.87202
G0 F3000 X17.889 Y-9.263
G1 F1500 X1.765 Y-25.387 E95.25124
G0 F3000 X2.331 Y-25.387
G1 F1500 X17.889 Y-9.829 E95.61714
G0 F3000 X17.889 Y-10.395
G1 F1500 X2.897 Y-25.387 E95.96973
G0 F3000 X3.462 Y-25.387
G1 F1500 X17.889 Y-10.96 E96.30903
G0 F3000 X17.889 Y-11.526
G1 F1500 X4.028 Y-25.387 E96.63502
G0 F3000 X4.594 Y-25.387
G1 F1500 X17.889 Y-12.092 E96.94769
G0 F3000 X17.889 Y-12.657
G1 F1500 X5.159 Y-25.387 E97.24708
G0 F3000 X5.725 Y-25.387
G1 F1500 X17.889 Y-13.223 E97.53316
G0 F3000 X17.889 Y-13.789
G1 F1500 X6.291 Y-25.387 E97.80593
G0 F3000 X6.856 Y-25.387
G1 F1500 X17.889 Y-14.354 E98.06541
G0 F3000 X17.889 Y-14.92
G1 F1500 X7.422 Y-25.387 E98.31158
G0 F3000 X7.988 Y-25.387
G1 F1500 X17.889 Y-15.486 E98.54443
G0 F3000 X17.889 Y-16.052
G1 F1500 X8.553 Y-25.387 E98.76399
G0 F3000 X9.119 Y-25.387
G1 F1500 X17.889 Y-16.617 E98.97025
G0 F3000 X17.889 Y-17.183
G1 F1500 X9.685 Y-25.387 E99.16319
G0 F3000 X10.25 Y-25.387
G1 F1500 X17.889 Y-17.749 E99.34284
G0 F3000 X17.889 Y-18.314
G1 F1500 X10.816 Y-25.387 E99.50918
G0 F3000 X11.382 Y-25.387
G1 F1500 X17.889 Y-18.88 E99.66222
G0 F3000 X17.889 Y-19.446
G1 F1500 X11.947 Y-25.387 E99.80195
G0 F3000 X12.513 Y-25.387
G1 F1500 X17.889 Y-20.011 E99.92839
G0 F3000 X17.889 Y-20.577
G1 F1500 X13.079 Y-25.387 E100.04151
G0 F3000 X13.645 Y-25.387
G1 F1500 X17.889 Y-21.143 E100.14133
G0 F3000 X17.889 Y-21.708
G1 F1500 X14.21 Y-25.387 E100.22785
G0 F3000 X14.776 Y-25.387
G1 F1500 X17.889 Y-22.274 E100.30106
G0 F3000 X17.889 Y-22.84
G1 F1500 X15.342 Y-25.387 E100.36096
G0 F3000 X15.907 Y-25.387
G1 F1500 X17.889 Y-23.405 E100.40758
G0 F3000 X17.889 Y-23.971
G1 F1500 X16.473 Y-25.387 E100.44088
G0 F3000 X17.039 Y-25.387
G1 F1500 X17.889 Y-24.537 E100.46087
G0 F3000 X17.889 Y-25.102
G1 F1500 X17.604 Y-25.387 E100.46757
M104 S220
G0 F3000 X17.605 Y-26.148
G1 F2400 E93.96757
;MESH:NOMESH
G0 F3000 X17.605 Y-26.148 Z0.3
G0 X-18.276 Y-25.777
G0 X-18.6 Y26.1
;TIME_ELAPSED:250.362488
;LAYER:1
M106 S255
;TYPE:WALL-INNER
;MESH:????????????.stl
G1 F2400 E100.46757
G1 F2600 X18.6 Y26.1 E101.70485
G1 X18.6 Y-26.1 E103.44103
G1 X-18.6 Y-26.1 E104.67831
G1 X-18.6 Y26.1 E106.41449
G0 F4000 X-19 Y26.5
G1 F2600 X19 Y26.5 E107.67837
G1 X19 Y-26.5 E109.44116
G1 X-19 Y-26.5 E110.70504
G1 X-19 Y26.5 E112.46783
G0 F4000 X-19.4 Y26.9
G1 F2600 X19.4 Y26.9 E113.75832
G1 X19.4 Y-26.9 E115.54772
G1 X-19.4 Y-26.9 E116.83821
G1 X-19.4 Y26.9 E118.62761
G0 F4000 X-19.8 Y27.236
G1 F2600 X-19.657 Y27.3 E118.63282
G1 X19.734 Y27.3 E119.94297
G1 X19.8 Y27.157 E119.94821
G1 X19.8 Y-27.236 E121.75733
G1 X19.657 Y-27.3 E121.76254
G1 X-19.736 Y-27.3 E123.07275
G1 X-19.8 Y-27.157 E123.07796
G1 X-19.8 Y27.236 E124.88708
G0 F4000 X-20.011 Y27.586
;TYPE:WALL-OUTER
G1 F2200 X-19.737 Y27.7 E124.89597
G1 X19.689 Y27.7 E126.07615
G1 X19.864 Y27.67 E126.08146
G1 X20.086 Y27.511 E126.08964
G1 X20.2 Y27.237 E126.09852
G1 X20.2 Y-27.191 E127.72777
G1 X20.12 Y-27.469 E127.73643
G1 X20.011 Y-27.586 E127.74122
G1 X19.737 Y-27.7 E127.7501
G1 X-19.689 Y-27.7 E128.93029
G1 X-19.969 Y-27.62 E128.939
G1 X-20.086 Y-27.511 E128.94379
G1 X-20.2 Y-27.237 E128.95267
G1 X-20.2 Y27.191 E130.58193
G1 X-20.119 Y27.469 E130.5906
G1 X-20.011 Y27.586 E130.59536
G0 F4000 X-19.826 Y27.663
G0 X-19.53 Y27.03
G0 X-18.5 Y25.74
G0 X-18.24 Y25.74
;TYPE:SKIN
G1 F2200 X-18.24 Y-25.74 E132.30759
G1 X18.24 Y-25.74 E133.52092
G1 X18.24 Y25.74 E135.23316
G1 X-18.24 Y25.74 E136.44649
G1 F2400 E129.94649
G0 F4000 X-18.5 Y25.74
G0 X17.452 Y26
G0 X17.452 Y25.539
G1 F2400 E136.44649
