;FLAVOR:Marlin
;TIME:5618
;Filament used: 3.98486m
;Layer height: 0.1
;MINX:-23.85
;MINY:27.486
;MINZ:0.1
;MAXX:23.85
;MAXY:90.186
;MAXZ:12
;Generated with Cura_SteamEngine 5.3.0
M82 ;absolute extrusion mode
G21 ; millimeter units
G90 ; absolute coordinates
M82 ; E absolute
M140 S60
M104 S220
M190 S60
M109 S220
G28 ; home axis
M420 S1 ; enable mesh leveling
; Lower nozzle and move to start position
G1 Z150
G1 X-130 Y0 Z0.4 F3000
; Extrude about 40 mm by printing a 90 degree arc
G3 X0 Y-130 I130 Z0.3 E40 F2700
; Retract and move nozzle up
G92 E0
G1 E-1.5 F1800
G0 Z0.5
G1 E0 F300

G92 E0
G92 E0
G1 F2400 E-6.5
;LAYER_COUNT:120
;LAYER:0
M107
G1 F3000 Z0.7
G0 X-18.855 Y27.886 Z0.7
;TYPE:SKIRT
G1 F3000 Z0.1
G1 F2400 E0
G1 F1500 X19.111 Y27.887 E0.63138
G1 X19.906 Y27.898 E0.6446
G1 X20.41 Y27.945 E0.65302
G1 X20.899 Y28.071 E0.66141
G1 X21.363 Y28.272 E0.66982
G1 X21.97 Y28.667 E0.68187
G1 X22.467 Y29.127 E0.69313
G1 X22.779 Y29.524 E0.70153
G1 X23.169 Y30.277 E0.71563
G1 X23.37 Y30.955 E0.72739
G1 X23.44 Y31.574 E0.73775
G1 X23.45 Y32.318 E0.75012
G1 X23.449 Y85.433 E1.63343
G1 X23.438 Y86.152 E1.64539
G1 X23.39 Y86.655 E1.65379
G1 X23.168 Y87.424 E1.6671
G1 X22.968 Y87.888 E1.6755
G1 X22.696 Y88.315 E1.68392
G1 X22.361 Y88.693 E1.69232
G1 X21.712 Y89.198 E1.706
G1 X21.094 Y89.515 E1.71755
G1 X20.614 Y89.672 E1.72595
G1 X19.928 Y89.76 E1.73745
G1 X18.641 Y89.786 E1.75886
G1 X-19.042 Y89.786 E2.38553
G1 X-19.892 Y89.773 E2.39966
G1 X-20.395 Y89.725 E2.40807
G1 X-20.885 Y89.599 E2.41648
G1 X-21.348 Y89.397 E2.42488
G1 X-21.984 Y88.985 E2.43748
G1 X-22.377 Y88.666 E2.4459
G1 X-22.714 Y88.29 E2.4543
G1 X-22.989 Y87.865 E2.46272
G1 X-23.193 Y87.403 E2.47112
G1 X-23.364 Y86.732 E2.48263
G1 X-23.44 Y86.083 E2.4935
G1 X-23.45 Y85.3 E2.50652
G1 X-23.449 Y32.207 E3.38946
G1 X-23.438 Y31.517 E3.40094
G1 X-23.39 Y31.014 E3.40934
G1 X-23.263 Y30.524 E3.41776
G1 X-23.049 Y30.01 E3.42702
G1 X-22.81 Y29.565 E3.43542
G1 X-22.504 Y29.162 E3.44383
G1 X-22.139 Y28.813 E3.45223
G1 X-21.456 Y28.364 E3.46582
G1 X-21.004 Y28.138 E3.47423
G1 X-20.521 Y27.986 E3.48265
G1 X-19.864 Y27.905 E3.49366
G1 X-18.855 Y27.886 E3.51044
G0 F3000 X-18.855 Y27.486
G1 F1500 X19.117 Y27.487 E4.14192
G1 X19.912 Y27.498 E4.15514
G1 X20.51 Y27.558 E4.16513
G1 X21.058 Y27.704 E4.17456
G1 X21.553 Y27.918 E4.18353
G1 X22.242 Y28.373 E4.19726
G1 X22.739 Y28.833 E4.20852
G1 X23.117 Y29.307 E4.21861
G1 X23.543 Y30.13 E4.23402
G1 X23.754 Y30.841 E4.24635
G1 X23.84 Y31.569 E4.25854
G1 X23.85 Y32.318 E4.271
G1 X23.849 Y85.439 E5.15441
G1 X23.838 Y86.158 E5.16636
G1 X23.785 Y86.729 E5.1759
G1 X23.552 Y87.535 E5.18985
G1 X23.305 Y88.103 E5.20015
G1 X23.033 Y88.53 E5.20857
G1 X22.634 Y88.988 E5.21867
G1 X21.929 Y89.537 E5.23353
G1 X21.277 Y89.871 E5.24572
G1 X20.701 Y90.064 E5.25582
G1 X19.979 Y90.157 E5.26793
G1 X18.649 Y90.186 E5.29005
G1 X-19.048 Y90.186 E5.91695
G1 X-19.898 Y90.173 E5.93109
G1 X-20.495 Y90.112 E5.94107
G1 X-21.045 Y89.966 E5.95053
G1 X-21.508 Y89.764 E5.95893
G1 X-22.236 Y89.296 E5.97333
G1 X-22.629 Y88.977 E5.98174
G1 X-23.012 Y88.557 E5.9912
G1 X-23.325 Y88.082 E6.00066
G1 X-23.573 Y87.535 E6.01064
G1 X-23.752 Y86.831 E6.02272
G1 X-23.84 Y86.088 E6.03517
G1 X-23.85 Y85.3 E6.04827
G1 X-23.849 Y32.201 E6.93131
G1 X-23.838 Y31.511 E6.94279
G1 X-23.777 Y30.914 E6.95277
G1 X-23.632 Y30.37 E6.96213
G1 X-23.418 Y29.856 E6.97139
G1 X-23.129 Y29.323 E6.98147
G1 X-22.823 Y28.92 E6.98989
G1 X-22.388 Y28.498 E6.99997
G1 X-21.635 Y28.006 E7.01493
G1 X-21.124 Y27.756 E7.02439
G1 X-20.608 Y27.594 E7.03338
G1 X-19.872 Y27.505 E7.04571
G1 X-18.855 Y27.486 E7.06262
G1 F2400 E0.56262
;MESH:????????????.stl
G0 F3000 X-18.857 Y31.506
G0 X-18.449 Y84.785
;TYPE:WALL-INNER
G1 F2400 E7.06262
G1 F1500 X18.449 Y84.785 E7.67624
G1 X18.449 Y32.888 E8.53929
G1 X-18.448 Y32.887 E9.15289
G1 X-18.449 Y84.785 E10.01596
G0 F3000 X-18.849 Y85.185
G1 F1500 X18.849 Y85.185 E10.64288
G1 X18.849 Y32.488 E11.51923
G1 X-18.848 Y32.487 E12.14614
G1 X-18.849 Y85.185 E13.02251
G0 F3000 X-19.249 Y85.585
G1 F1500 X19.249 Y85.585 E13.66273
G1 X19.249 Y32.088 E14.55239
G1 X-19.248 Y32.087 E15.1926
G1 X-19.249 Y85.585 E16.08227
G0 F3000 X-19.649 Y85.985
G1 F1500 X19.647 Y85.984 E16.73577
G1 X19.649 Y31.688 E17.63872
G1 X-19.645 Y31.687 E18.29218
G1 X-19.649 Y85.985 E19.19516
G0 F3000 X-19.967 Y86.253
;TYPE:WALL-OUTER
G1 F1500 X-19.776 Y86.386 E19.19864
G1 X19.683 Y86.386 E19.78923
G1 X19.827 Y86.359 E19.79142
G1 X20.002 Y86.206 E19.7949
G1 X20.049 Y86.068 E19.79708
G1 X20.049 Y31.542 E20.61317
G1 X19.872 Y31.334 E20.61726
G1 X19.735 Y31.287 E20.61943
G1 X-19.745 Y31.287 E21.21033
G1 X-19.96 Y31.408 E21.21402
G1 X-20.048 Y31.61 E21.21732
G1 X-20.049 Y86.032 E22.03186
G1 X-19.967 Y86.253 E22.03538
G0 F3000 X-19.803 Y86.367
G0 X-19.38 Y85.716
G0 X-18.348 Y84.424
G0 X-18.089 Y84.425
;TYPE:SKIN
G1 F1500 X-18.088 Y33.247 E22.88648
G1 X18.089 Y33.248 E23.4881
G1 X18.089 Y84.425 E24.33918
G1 X-18.089 Y84.425 E24.94082
G0 F3000 X-17.599 Y84.224
G1 F1500 X-17.889 Y83.934 E24.94764
G0 F3000 X-17.889 Y83.368
G1 F1500 X-17.033 Y84.224 E24.96778
G0 F3000 X-16.467 Y84.224
G1 F1500 X-17.889 Y82.802 E25.00122
G0 F3000 X-17.889 Y82.237
G1 F1500 X-15.902 Y84.224 E25.04795
G0 F3000 X-15.336 Y84.224
G1 F1500 X-17.889 Y81.671 E25.10799
G0 F3000 X-17.889 Y81.105
G1 F1500 X-14.77 Y84.224 E25.18135
G0 F3000 X-14.205 Y84.224
G1 F1500 X-17.889 Y80.54 E25.26799
G0 F3000 X-17.889 Y79.974
G1 F1500 X-13.639 Y84.224 E25.36794
G0 F3000 X-13.073 Y84.224
G1 F1500 X-17.889 Y79.408 E25.48121
G0 F3000 X-17.889 Y78.843
G1 F1500 X-12.508 Y84.224 E25.60776
G0 F3000 X-11.942 Y84.224
G1 F1500 X-17.889 Y78.277 E25.74762
G0 F3000 X-17.889 Y77.711
G1 F1500 X-11.376 Y84.224 E25.9008
G0 F3000 X-10.81 Y84.224
G1 F1500 X-17.889 Y77.146 E26.06728
G0 F3000 X-17.889 Y76.58
G1 F1500 X-10.245 Y84.224 E26.24705
G0 F3000 X-9.679 Y84.224
G1 F1500 X-17.889 Y76.014 E26.44014
G0 F3000 X-17.889 Y75.449
G1 F1500 X-9.113 Y84.224 E26.64652
G0 F3000 X-8.548 Y84.224
G1 F1500 X-17.889 Y74.883 E26.86621
G0 F3000 X-17.889 Y74.317
G1 F1500 X-7.982 Y84.224 E27.09921
G0 F3000 X-7.416 Y84.224
G1 F1500 X-17.889 Y73.751 E27.34552
G0 F3000 X-17.889 Y73.186
G1 F1500 X-6.851 Y84.224 E27.60511
G0 F3000 X-6.285 Y84.224
G1 F1500 X-17.889 Y72.62 E27.87802
G0 F3000 X-17.889 Y72.054
G1 F1500 X-5.719 Y84.224 E28.16424
G0 F3000 X-5.154 Y84.224
G1 F1500 X-17.889 Y71.489 E28.46375
G0 F3000 X-17.889 Y70.923
G1 F1500 X-4.588 Y84.224 E28.77657
G0 F3000 X-4.022 Y84.224
G1 F1500 X-17.889 Y70.357 E29.1027
G0 F3000 X-17.889 Y69.792
G1 F1500 X-3.457 Y84.224 E29.44212
G0 F3000 X-2.891 Y84.224
G1 F1500 X-17.889 Y69.226 E29.79485
G0 F3000 X-17.889 Y68.66
G1 F1500 X-2.325 Y84.224 E30.16089
G0 F3000 X-1.759 Y84.224
G1 F1500 X-17.889 Y68.095 E30.54023
G0 F3000 X-17.889 Y67.529
G1 F1500 X-1.194 Y84.224 E30.93287
G0 F3000 X-.628 Y84.224
G1 F1500 X-17.889 Y66.963 E31.33882
G0 F3000 X-17.889 Y66.398
G1 F1500 X-0.062 Y84.224 E31.75807
G0 F3000 X0.502 Y84.224
G1 F1500 X-17.889 Y65.832 E32.19061
G0 F3000 X-17.889 Y65.266
G1 F1500 X1.068 Y84.224 E32.63647
G0 F3000 X1.634 Y84.224
G1 F1500 X-17.889 Y64.7 E33.09563
G0 F3000 X-17.889 Y64.135
G1 F1500 X2.199 Y84.224 E33.56808
G0 F3000 X2.765 Y84.224
G1 F1500 X-17.889 Y63.569 E34.05384
G0 F3000 X-17.889 Y63.003
G1 F1500 X3.331 Y84.224 E34.55291
G0 F3000 X3.896 Y84.224
G1 F1500 X-17.889 Y62.438 E35.06528
G0 F3000 X-17.889 Y61.872
G1 F1500 X4.462 Y84.224 E35.59095
G0 F3000 X5.028 Y84.224
G1 F1500 X-17.889 Y61.306 E36.12993
G0 F3000 X-17.889 Y60.741
G1 F1500 X5.593 Y84.224 E36.68221
G0 F3000 X6.159 Y84.224
G1 F1500 X-17.889 Y60.175 E37.24779
G0 F3000 X-17.889 Y59.609
G1 F1500 X6.725 Y84.224 E37.82669
G0 F3000 X7.29 Y84.224
G1 F1500 X-17.889 Y59.044 E38.41887
G0 F3000 X-17.889 Y58.478
G1 F1500 X7.856 Y84.224 E39.02436
G0 F3000 X8.422 Y84.224
G1 F1500 X-17.889 Y57.912 E39.64317
G0 F3000 X-17.889 Y57.347
G1 F1500 X8.988 Y84.224 E40.27528
G0 F3000 X9.553 Y84.224
G1 F1500 X-17.889 Y56.781 E40.92068
G0 F3000 X-17.889 Y56.215
G1 F1500 X10.119 Y84.224 E41.5794
G0 F3000 X10.685 Y84.224
G1 F1500 X-17.889 Y55.65 E42.25141
G0 F3000 X-17.889 Y55.084
G1 F1500 X11.25 Y84.224 E42.93673
G0 F3000 X11.816 Y84.224
G1 F1500 X-17.889 Y54.518 E43.63536
G0 F3000 X-17.889 Y53.952
G1 F1500 X12.382 Y84.224 E44.3473
G0 F3000 X12.947 Y84.224
G1 F1500 X-17.889 Y53.387 E45.07253
G0 F3000 X-17.889 Y52.821
G1 F1500 X13.513 Y84.224 E45.81106
G0 F3000 X14.079 Y84.224
G1 F1500 X-17.889 Y52.255 E46.56291
G0 F3000 X-17.889 Y51.69
G1 F1500 X14.644 Y84.224 E47.32805
G0 F3000 X15.21 Y84.224
G1 F1500 X-17.889 Y51.124 E48.1065
G0 F3000 X-17.889 Y50.558
G1 F1500 X15.776 Y84.224 E48.89826
G0 F3000 X16.341 Y84.224
G1 F1500 X-17.889 Y49.993 E49.70331
G0 F3000 X-17.889 Y49.427
G1 F1500 X16.907 Y84.224 E50.52167
G0 F3000 X17.473 Y84.224
G1 F1500 X-17.889 Y48.861 E51.35334
G0 F3000 X-17.889 Y48.296
G1 F1500 X17.889 Y84.074 E52.19479
G0 F3000 X17.889 Y83.508
G1 F1500 X-17.889 Y47.73 E53.03623
G0 F3000 X-17.889 Y47.164
G1 F1500 X17.889 Y82.942 E53.87767
G0 F3000 X17.889 Y82.377
G1 F1500 X-17.889 Y46.599 E54.71912
G0 F3000 X-17.889 Y46.033
G1 F1500 X17.889 Y81.811 E55.56056
G0 F3000 X17.889 Y81.245
G1 F1500 X-17.889 Y45.467 E56.40201
G0 F3000 X-17.889 Y44.901
G1 F1500 X17.889 Y80.68 E57.24346
G0 F3000 X17.889 Y80.114
G1 F1500 X-17.889 Y44.336 E58.08491
G0 F3000 X-17.889 Y43.77
G1 F1500 X17.889 Y79.548 E58.92635
G0 F3000 X17.889 Y78.983
G1 F1500 X-17.889 Y43.204 E59.7678
G0 F3000 X-17.889 Y42.639
G1 F1500 X17.889 Y78.417 E60.60925
G0 F3000 X17.889 Y77.851
G1 F1500 X-17.889 Y42.073 E61.45069
G0 F3000 X-17.889 Y41.507
G1 F1500 X17.889 Y77.286 E62.29215
G0 F3000 X17.889 Y76.72
G1 F1500 X-17.889 Y40.942 E63.13359
G0 F3000 X-17.889 Y40.376
G1 F1500 X17.889 Y76.154 E63.97503
G0 F3000 X17.889 Y75.589
G1 F1500 X-17.889 Y39.81 E64.81649
G0 F3000 X-17.889 Y39.245
G1 F1500 X17.889 Y75.023 E65.65793
G0 F3000 X17.889 Y74.457
G1 F1500 X-17.889 Y38.679 E66.49938
G0 F3000 X-17.889 Y38.113
G1 F1500 X17.889 Y73.891 E67.34082
G0 F3000 X17.889 Y73.326
G1 F1500 X-17.889 Y37.548 E68.18226
G0 F3000 X-17.889 Y36.982
G1 F1500 X17.889 Y72.76 E69.02371
G0 F3000 X17.889 Y72.194
G1 F1500 X-17.889 Y36.416 E69.86515
G0 F3000 X-17.889 Y35.851
G1 F1500 X17.889 Y71.629 E70.7066
G0 F3000 X17.889 Y71.063
G1 F1500 X-17.889 Y35.285 E71.54804
G0 F3000 X-17.889 Y34.719
G1 F1500 X17.889 Y70.497 E72.38948
G0 F3000 X17.889 Y69.932
G1 F1500 X-17.889 Y34.153 E73.23094
G0 F3000 X-17.889 Y33.588
G1 F1500 X17.889 Y69.366 E74.07238
G0 F3000 X17.889 Y68.8
G1 F1500 X-17.464 Y33.446 E74.90384
G0 F3000 X-16.899 Y33.446
G1 F1500 X17.889 Y68.235 E75.72202
G0 F3000 X17.889 Y67.669
G1 F1500 X-16.333 Y33.446 E76.52688
G0 F3000 X-15.767 Y33.446
G1 F1500 X17.889 Y67.103 E77.31843
G0 F3000 X17.889 Y66.538
G1 F1500 X-15.202 Y33.446 E78.09669
G0 F3000 X-14.636 Y33.446
G1 F1500 X17.889 Y65.972 E78.86164
G0 F3000 X17.889 Y65.406
G1 F1500 X-14.07 Y33.446 E79.61327
G0 F3000 X-13.505 Y33.446
G1 F1500 X17.889 Y64.84 E80.35161
G0 F3000 X17.889 Y64.275
G1 F1500 X-12.939 Y33.446 E81.07665
G0 F3000 X-12.373 Y33.446
G1 F1500 X17.889 Y63.709 E81.78838
G0 F3000 X17.889 Y63.143
G1 F1500 X-11.807 Y33.446 E82.4868
G0 F3000 X-11.242 Y33.446
G1 F1500 X17.889 Y62.578 E83.17192
G0 F3000 X17.889 Y62.012
G1 F1500 X-10.676 Y33.446 E83.84374
G0 F3000 X-10.11 Y33.446
G1 F1500 X17.889 Y61.446 E84.50225
G0 F3000 X17.889 Y60.881
G1 F1500 X-9.545 Y33.446 E85.14746
G0 F3000 X-8.979 Y33.446
G1 F1500 X17.889 Y60.315 E85.77937
G0 F3000 X17.889 Y59.749
G1 F1500 X-8.413 Y33.446 E86.39796
G0 F3000 X-7.848 Y33.446
G1 F1500 X17.889 Y59.184 E87.00327
G0 F3000 X17.889 Y58.618
G1 F1500 X-7.282 Y33.446 E87.59527
G0 F3000 X-6.716 Y33.446
G1 F1500 X17.889 Y58.052 E88.17395
G0 F3000 X17.889 Y57.487
G1 F1500 X-6.151 Y33.446 E88.73935
G0 F3000 X-5.585 Y33.446
G1 F1500 X17.889 Y56.921 E89.29143
G0 F3000 X17.889 Y56.355
G1 F1500 X-5.019 Y33.446 E89.8302
G0 F3000 X-4.454 Y33.446
G1 F1500 X17.889 Y55.79 E90.35569
G0 F3000 X17.889 Y55.224
G1 F1500 X-3.888 Y33.446 E90.86786
G0 F3000 X-3.322 Y33.446
G1 F1500 X17.889 Y54.658 E91.36672
G0 F3000 X17.889 Y54.092
G1 F1500 X-2.757 Y33.446 E91.85228
G0 F3000 X-2.191 Y33.446
G1 F1500 X17.889 Y53.527 E92.32455
G0 F3000 X17.889 Y52.961
G1 F1500 X-1.625 Y33.446 E92.7835
G0 F3000 X-1.059 Y33.446
G1 F1500 X17.889 Y52.395 E93.22914
G0 F3000 X17.889 Y51.83
G1 F1500 X-.494 Y33.446 E93.66149
G0 F3000 X0.071 Y33.446
G1 F1500 X17.889 Y51.264 E94.08054
G0 F3000 X17.889 Y50.698
G1 F1500 X0.637 Y33.446 E94.48628
G0 F3000 X1.202 Y33.446
G1 F1500 X17.889 Y50.133 E94.87874
G0 F3000 X17.889 Y49.567
G1 F1500 X1.768 Y33.446 E95.25788
G0 F3000 X2.334 Y33.446
G1 F1500 X17.889 Y49.001 E95.62371
G0 F3000 X17.889 Y48.436
G1 F1500 X2.899 Y33.446 E95.97625
G0 F3000 X3.465 Y33.446
G1 F1500 X17.889 Y47.87 E96.31548
G0 F3000 X17.889 Y47.304
G1 F1500 X4.031 Y33.446 E96.6414
G0 F3000 X4.596 Y33.446
G1 F1500 X17.889 Y46.739 E96.95403
G0 F3000 X17.889 Y46.173
G1 F1500 X5.162 Y33.446 E97.25335
G0 F3000 X5.728 Y33.446
G1 F1500 X17.889 Y45.607 E97.53936
G0 F3000 X17.889 Y45.041
G1 F1500 X6.293 Y33.446 E97.81206
G0 F3000 X6.859 Y33.446
G1 F1500 X17.889 Y44.476 E98.07147
G0 F3000 X17.889 Y43.91
G1 F1500 X7.425 Y33.446 E98.31757
G0 F3000 X7.991 Y33.446
G1 F1500 X17.889 Y43.344 E98.55036
G0 F3000 X17.889 Y42.779
G1 F1500 X8.556 Y33.446 E98.76985
G0 F3000 X9.122 Y33.446
G1 F1500 X17.889 Y42.213 E98.97604
G0 F3000 X17.889 Y41.647
G1 F1500 X9.688 Y33.446 E99.16892
G0 F3000 X10.253 Y33.446
G1 F1500 X17.889 Y41.082 E99.3485
G0 F3000 X17.889 Y40.516
G1 F1500 X10.819 Y33.446 E99.51478
G0 F3000 X11.385 Y33.446
G1 F1500 X17.889 Y39.95 E99.66774
G0 F3000 X17.889 Y39.385
G1 F1500 X11.95 Y33.446 E99.80742
G0 F3000 X12.516 Y33.446
G1 F1500 X17.889 Y38.819 E99.93378
G0 F3000 X17.889 Y38.253
G1 F1500 X13.082 Y33.446 E100.04684
G0 F3000 X13.647 Y33.446
G1 F1500 X17.889 Y37.688 E100.1466
G0 F3000 X17.889 Y37.122
G1 F1500 X14.213 Y33.446 E100.23306
G0 F3000 X14.779 Y33.446
G1 F1500 X17.889 Y36.556 E100.3062
G0 F3000 X17.889 Y35.991
G1 F1500 X15.344 Y33.446 E100.36605
G0 F3000 X15.91 Y33.446
G1 F1500 X17.889 Y35.425 E100.4126
G0 F3000 X17.889 Y34.859
G1 F1500 X16.476 Y33.446 E100.44583
G0 F3000 X17.041 Y33.446
G1 F1500 X17.889 Y34.293 E100.46576
G0 F3000 X17.889 Y33.728
G1 F1500 X17.607 Y33.446 E100.47239
M104 S220
G0 F3000 X17.608 Y32.688
G1 F2400 E93.97239
;MESH:NOMESH
G0 F3000 X17.608 Y32.688 Z0.2
G0 X-18.276 Y33.059
G0 X-18.55 Y84.886
;TIME_ELAPSED:251.356032
;LAYER:1
M106 S255
;TYPE:WALL-INNER
;MESH:????????????.stl
G1 F2400 E100.47239
G1 F2200 X18.55 Y84.886 E101.08937
G1 X18.55 Y32.786 E101.95579
G1 X-18.55 Y32.786 E102.57277
G1 X-18.55 Y84.886 E103.4392
G0 F4000 X-18.95 Y85.286
G1 F2200 X18.95 Y85.286 E104.06947
G1 X18.95 Y32.386 E104.94921
G1 X-18.95 Y32.386 E105.57948
G1 X-18.95 Y85.286 E106.45922
G0 F4000 X-19.35 Y85.686
G1 F2200 X19.35 Y85.686 E107.1028
G1 X19.35 Y31.986 E107.99583
G1 X-19.35 Y31.986 E108.63942
G1 X-19.35 Y85.686 E109.53245
G0 F4000 X-19.718 Y86.086
G1 F2200 X19.708 Y86.085 E110.18811
G1 X19.75 Y85.99 E110.18984
G1 X19.75 Y31.628 E111.09388
G1 X19.654 Y31.586 E111.09562
G1 X-19.71 Y31.586 E111.75025
G1 X-19.75 Y31.678 E111.75192
G1 X-19.749 Y86.004 E112.65536
G1 X-19.718 Y86.086 E112.65682
G0 F4000 X-20.072 Y86.283
;TYPE:WALL-OUTER
G1 F1800 X-19.843 Y86.459 E112.66114
G1 X-19.688 Y86.486 E112.6635
G1 X19.736 Y86.485 E113.25356
G1 X19.947 Y86.408 E113.25692
G1 X20.043 Y86.32 E113.25887
G1 X20.15 Y86.072 E113.26291
G1 X20.15 Y31.595 E114.07827
G1 X20.073 Y31.389 E114.08156
G1 X19.984 Y31.293 E114.08352
G1 X19.736 Y31.186 E114.08757
G1 X-19.739 Y31.186 E114.67839
G1 X-19.945 Y31.264 E114.68169
G1 X-20.046 Y31.354 E114.68371
G1 X-20.15 Y31.598 E114.68768
G1 X-20.149 Y86.076 E115.50306
G1 X-20.072 Y86.283 E115.50636
G0 F4000 X-19.913 Y86.405
G0 X-19.48 Y85.816
G0 X-18.45 Y84.526
G0 X-18.19 Y84.526
;TYPE:SKIN
G1 F2200 X-18.19 Y33.146 E116.36082
G1 X18.19 Y33.146 E116.96582
G1 X18.19 Y84.526 E117.82027
G1 X-18.19 Y84.526 E118.42527
G1 F2400 E111.92527
G0 F4000 X-18.45 Y84.526
G0 X17.498 Y84.786
G0 X17.498 Y84.325
G1 F2400 E118.42527
G1 F2200 X17.99 Y83.833 E118.43684
G0 F4000 X17.99 Y83.267
